!!!!SEGMENT: pl-cz--iii-882--003_brykner-jerzy--completorium-c-qui-habitat.krn
!!!cenid: 17xx:863
!!!COM: Brykner, Jerzy
!!!COM-rismID:
!!!CDT: 1705-1760
!!!CNT: Polish
!!!OPR: Completorium C
!!!OTL: Qui habitat
!!!OMV: 003
!!!PDT:
!!!AGN: Completorium
!!!SMS-siglum: PL-CZ
!!!SMS-shelfmark: III-882
!!!SMS-shelfwork: 001-003 M
!!!SMS-variant:
!!!SMS-altvar:
!!!NIFC-rismSourceID: 300033576
!!!NIFC-islandoraID: pl-cz:41423
!!!URL-pdf-islandora: https://repozytorium.nifc.pl/islandora/object/pl-cz%3A41423/datastream/PDF/view
!!!URL-scan:
!!!ONB-nifc: UWAGA: części Completorium: Cum invocarem, In te Domine speravi, Qui habitat, Ecce nunc benedicite, Te lucis ante terminum,
!!!AIN: 1 alto 1 bass 1 organ 1 tenor 2 violn 1 vox
!!!key:
**kern	**fba	**dynam	**kern	**dynam	**kern	**kern	**text	**kern	**kern	**text	**kern	**text
*part7	*	*part7	*part6	*part6	*part5	*part4	*part4	*part3	*part2	*part2	*part1	*part1
*	*	*	*group2	*	*group2	*group1	*	*group1	*group1	*	*group1	*
*staff7	*	*	*staff6	*	*staff5	*staff4	*staff4	*staff3	*staff2	*staff2	*staff1	*staff1
*Iorgan	*	*	*Ivioln	*	*Ivioln	*Ibass	*	*Itenor	*Ialto	*	*Ivox	*
*I"Organo.	*	*	*I"Violino Secundo.	*	*I"Violino Primo.	*I"(Basso)	*	*I"(Tenor)	*I"(Alto)	*	*I"Canto.	*
*I'org	*	*	*I'vl 2	*	*I'vl 1	*I'B	*	*I'T	*I'A	*	*I'C	*
*clefF4	*	*	*clefG2	*	*clefG2	*clefF4	*	*clefGv2	*clefC3	*	*clefC1	*
*k[f#c#]	*	*	*k[f#c#]	*	*k[f#c#]	*k[f#c#]	*	*k[f#c#]	*k[f#c#]	*	*k[c#f#]	*
*D:	*	*	*D:	*	*D:	*D:	*	*D:	*D:	*	*D:	*
*M4/4	*	*	*M4/4	*	*M4/4	*M4/4	*	*M4/4	*M4/4	*	*M4/4	*
*met(c)	*	*	*met(c)	*	*met(c)	*met(c)	*	*met(c)	*met(c)	*	*met(c)	*
=1	=1	=1	=1	=1	=1	=1	=1	=1	=1	=1	=1	=1
!LO:TX:b:t=Qui habitat.	!	!	!	!	!	!LO:TX:a:t=P:problem=nazwa głosu wzięta z karty tytułowej	!	!LO:TX:a:t=P:problem=nazwa głosu wzięta z karty tytułowej	!LO:TX:a:t=P:problem=nazwa głosu wzięta z karty tytułowej	!	!LO:TX:a:t=P:problem=przed pauzą jeszcze jedna, skreślona	!
!LO:TX:a:t=Solo	!	!	!LO:TX:b:i:t=Quihabitat.	!	!LO:TX:a:t=P:problem=brak partii	!LO:TX:a:t=P:problem=brak początku partii	!	!LO:TX:a:t=P:problem=brak partii	!LO:TX:b:t=Qui habitat.	!	!LO:TX:a:t=P:problem=krzyżyk c# oktawę wyżej	!
8D\L	.	.	00r	.	1ryy	1ryy	.	1ryy	00r	.	8r	.
!	!	!	!	!	!	!	!	!	!	!	!LO:TX:b:t=P:problem="Q" przed kluczem	!
8F#\	6	.	.	.	.	.	.	.	.	.	8dd\	Qui
8G\	6 5	.	.	.	.	.	.	.	.	.	8ee\	ha-
8A\J	.	.	.	.	.	.	.	.	.	.	16dd\LL	-bi-
.	.	.	.	.	.	.	.	.	.	.	16cc#\JJ	.
8D\L	.	.	.	.	.	.	.	.	.	.	8dd\	-tat
8D\	.	.	.	.	.	.	.	.	.	.	8ff#\	in
8G\	.	.	.	.	.	.	.	.	.	.	16ee\LL	ad-
.	.	.	.	.	.	.	.	.	.	.	16dd\JJ	.
8G\J	.	.	.	.	.	.	.	.	.	.	16cc#\LL	-ju-
.	.	.	.	.	.	.	.	.	.	.	16b\JJ	.
=2	=2	=2	=2	=2	=2	=2	=2	=2	=2	=2	=2	=2
!LO:TX:t=P:problem=mixed beam	!	!	!	!	!	!	!	!	!	!	!	!
8A\L	.	.	.	.	1ryy	1ryy	.	1ryy	.	.	8a\	-to-
8A\	.	.	.	.	.	.	.	.	.	.	8cc#\	-ri-
8C#/	6	.	.	.	.	.	.	.	.	.	8ee\	-o
8C#/J	.	.	.	.	.	.	.	.	.	.	8gg\	Al-
8D/L	.	.	.	.	.	.	.	.	.	.	16ff#\	-tiſ-
.	.	.	.	.	.	.	.	.	.	.	16ee\	-si-
8D/	.	.	.	.	.	.	.	.	.	.	8dd\	-mi
8D/	.	.	.	.	.	.	.	.	.	.	8r	.
8D/J	.	.	.	.	.	.	.	.	.	.	16ff#\	in
.	.	.	.	.	.	.	.	.	.	.	16ff#\	pro-
=3	=3	=3	=3	=3	=3	=3	=3	=3	=3	=3	=3	=3
8G\L	6	.	.	.	1ryy	1ryy	.	1ryy	.	.	8ee\	-tec-
8G\	.	.	.	.	.	.	.	.	.	.	16dd\LL	-ti-
.	.	.	.	.	.	.	.	.	.	.	16cc#\JJ	.
8G\	.	.	.	.	.	.	.	.	.	.	8b\	-o-
!	!	!	!	!	!	!	!	!	!	!	!LO:LB:g=original	!
8G\J	.	.	.	.	.	.	.	.	.	.	8ee\	-ne
!LO:TX:t=P:problem=mixed beam	!	!	!	!	!	!	!	!	!	!	!	!
8A\L	.	.	.	.	.	.	.	.	.	.	8cc#\	De-
8AA/J	.	.	.	.	.	.	.	.	.	.	16b\LL	-i
.	.	.	.	.	.	.	.	.	.	.	16a\JJ	.
8r	.	.	.	.	.	.	.	.	.	.	[<4gg\	cae-
16AA/LL	7	.	.	.	.	.	.	.	.	.	.	.
16BB/JJ	.	.	.	.	.	.	.	.	.	.	.	.
=4	=4	=4	=4	=4	=4	=4	=4	=4	=4	=4	=4	=4
8C#/L	.	.	.	.	1ryy	1ryy	.	1ryy	.	.	8gg\]	.
8AA/J	.	.	.	.	.	.	.	.	.	.	16ff#\LL	-li
.	.	.	.	.	.	.	.	.	.	.	16ee\JJ	.
8D\L	.	.	.	.	.	.	.	.	.	.	8ff#\	com-
8G\J	6	.	.	.	.	.	.	.	.	.	16ee\LL	-(m)o-
.	.	.	.	.	.	.	.	.	.	.	16dd\JJ	.
!LO:TX:t=P:problem=mixed beam	!	!	!	!	!	!	!	!	!	!	!	!
8A\L	.	.	.	.	.	.	.	.	.	.	4dd\	-ra-
8A\	4	.	.	.	.	.	.	.	.	.	.	.
8AA/	.	.	.	.	.	.	.	.	.	.	8.cc#\	.
8AA/J	3	.	.	.	.	.	.	.	.	.	.	.
.	.	.	.	.	.	.	.	.	.	.	16dd\	-bi-
=5	=5	=5	=5	=5	=5	=5	=5	=5	=5	=5	=5	=5
8D\L	.	.	16r	.	1ryy	1ryy	.	1ryy	8r	.	8dd\	-tur.
.	.	.	16ff#\LL	.	.	.	.	.	.	.	.	.
!LO:TX:a:t=Tutti	!	!	!	!	!	!	!	!	!	!	!	!
16d\L	.	.	16ff#\	.	.	.	.	.	4a\	Di-	16ff#\LL	Di-
16c#\JJ	.	.	16ee\JJ	.	.	.	.	.	.	.	16ee\JJ	.
!LO:TX:t=P:problem=mixed beam	!	!	!	!	!	!	!	!	!	!	!	!
8d\L	.	.	8ff#\L	.	.	.	.	.	.	.	8ff#\	.
8D/J	.	.	8dd\J	.	.	.	.	.	8a\	-cet	8dd\	-cet
8d\L	.	.	8ff#\L	.	.	.	.	.	8.a\	Do-	8.ff#\	Do-
8d\J	.	.	8ff#\	.	.	.	.	.	.	.	.	.
.	.	.	.	.	.	.	.	.	16a\	-mi-	16ff#\	-mi-
!LO:LB:g=original	!	!	!	!	!	!	!	!	!	!	!	!
8c#\L	.	.	8ee\	.	.	.	.	.	8a\	-no	8ee\	-no
8B\J	.	.	8dd\J	.	.	.	.	.	8g#X\	ſus-	8dd\	ſus-
=6	=6	=6	=6	=6	=6	=6	=6	=6	=6	=6	=6	=6
8A\L	.	.	8cc#\L	.	1ryy	1ryy	.	1ryy	4a\	-cep-	4cc#\	-cep-
8G\	.	.	8cc#\	.	.	.	.	.	.	.	.	.
8F#\	6	.	8dd\	.	.	.	.	.	8a\	-tor	8dd\	-tor
!	!	!	!	!	!	!	!	!	!	!	!LO:LB:g=original	!
8B\J	.	.	8ff#\J	.	.	.	.	.	4f#\	me-	8dd\L	me-
8A\L	.	.	8ff#\L	.	.	.	.	.	.	.	8cc#\J	.
8G\	.	.	8ff#\	.	.	.	.	.	8g\	-us	8b\	-us
8F#\	6	.	8dd\	.	.	.	.	.	8a\L	es	8a\	.
8E\J	.	.	8cc#\J	.	.	.	.	.	8g\J	.	16b\LL	es
.	.	.	.	.	.	.	.	.	.	.	16cc#\JJ	.
=7	=7	=7	=7	=7	=7	=7	=7	=7	=7	=7	=7	=7
8D\L	.	.	8dd\L	.	1ryy	1ryy	.	1ryy	8a\	tu,	8dd\	tu
!	!	!	!	!	!	!	!	!	!LO:SIC:v:l:s=et	!	!LO:SIC:v:l:s=et	!
8F#\	6	.	8dd\	.	.	.	.	.	16a\	&	16dd\	&
.	.	.	.	.	.	.	.	.	16a\	re-	16dd\	re-
!	!	!	!	!	!	!	!	!	!LO:TX:a:t=P:problem=trzy skreślone nuty	!	!	!
8G#X\	6 5	.	8dd\	.	.	.	.	.	8b\	-fu-	8dd\	-fu-
8A\J	.	.	8cc#\J	.	.	.	.	.	16a\	-gi-	16cc#\	-gi-
.	.	.	.	.	.	.	.	.	16a\	-um	16cc#\	-um
*	*	*	*2\right	*	*	*	*	*	*	*	*2\right	*
8B\L	7	.	2dd\	.	.	.	.	.	4a\	me-	2dd\	me-
8A\	.	.	.	.	.	.	.	.	.	.	.	.
8B\	6\	.	.	.	.	.	.	.	4g#X\	.	.	.
8E\J	.	.	.	.	.	.	.	.	.	.	.	.
!	!	!	!	!	!	!	!	!	!LO:LB:g=original	!	!	!
=8	=8	=8	=8	=8	=8	=8	=8	=8	=8	=8	=8	=8
8A\L	.	.	8cc#\L	.	1ryy	1ryy	.	1ryy	8a\	-um	8cc#\	-um
!	!	!	!	!	!	!	!	!	!LO:TX:b:t=P:problem=skreślony tekst	!	!	!
8A\	.	.	8ee\	.	.	.	.	.	4a\	De-	4cc#\	De-
8A\	.	.	8ee\	.	.	.	.	.	.	.	.	.
8G#X\J	6	.	8ee\J	.	.	.	.	.	8b\	-us	8ee\	-us
8F#\L	7	.	8ee\L	.	.	.	.	.	4a\	me-	8ee\L	me-
8B\	7	.	8dd\	.	.	.	.	.	.	.	8dd\J	.
8E\	7 #	.	8dd\	.	.	.	.	.	8g#X\	-us	8dd\	-us
8A\J	.	.	8cc#\J	.	.	.	.	.	8a\	spe-	8cc#\	spe-
=9	=9	=9	=9	=9	=9	=9	=9	=9	=9	=9	=9	=9
8D\L	7	.	8cc#\L	.	1ryy	1ryy	.	1ryy	4f#\	-ra-	8cc#\L	-ra-
8D\J	6	.	16b\L	.	.	.	.	.	.	.	16b\L	.
.	.	.	16a\JJ	.	.	.	.	.	.	.	16a\JJ	.
!	!	!	!LO:LB:g=original	!	!	!	!	!	!	!	!	!
8D\L	#4 2	.	8g#X/L	.	.	.	.	.	8e\	-bo	8g#X\	.
16C#\L	6	.	8a/J	.	.	.	.	.	8e\	in	16a\	-bo
16D\JJ	.	.	.	.	.	.	.	.	.	.	16a\	in
*	*	*	*	*	*	*	*	*	*2\right	*	*	*
!LO:TX:t=P:problem=mixed beam	!	!	!	!	!	!	!	!	!	!	!	!
8E\L	4	.	4a/	.	.	.	.	.	2e\	e-	4a\	e-
8E\	.	.	.	.	.	.	.	.	.	.	.	.
8EE/	#	.	4g#X/	.	.	.	.	.	.	.	4g#\	.
8EE/J	.	.	.	.	.	.	.	.	.	.	.	.
=10	=10	=10	=10	=10	=10	=10	=10	=10	=10	=10	=10	=10
8AA/L	.	.	16a\LL	.	1ryy	1ryy	.	1ryy	4e\	-um.	4a\	-um
.	.	.	16cc#\	.	.	.	.	.	.	.	.	.
8AA/	.	.	16b\	.	.	.	.	.	.	.	.	.
.	.	.	16a\JJ	.	.	.	.	.	.	.	.	.
!LO:TX:a:t=Solo	!	!	!	!	!	!	!	!	!	!	!LO:LB:g=original	!
8C#/	.	.	8ee\L	.	.	.	.	.	4r	.	4r	.
8AA/J	.	.	8aa\J	.	.	.	.	.	.	.	.	.
8E\L	#	.	16gg#X\LL	.	.	.	.	.	2r	.	2r	.
.	.	.	16ff#\J	.	.	.	.	.	.	.	.	.
8E\J	.	.	8ee\J	.	.	.	.	.	.	.	.	.
!LO:LB:g=original	!	!	!	!	!	!	!	!	!	!	!	!
!LO:TX:t=P:problem=mixed beam	!	!	!	!	!	!	!	!	!	!	!	!
8A\L	.	.	16r	.	.	.	.	.	.	.	.	.
.	.	.	16cc#\LL	.	.	.	.	.	.	.	.	.
8AA/J	.	.	16b\	.	.	.	.	.	.	.	.	.
.	.	.	16a\JJ	.	.	.	.	.	.	.	.	.
=11	=11	=11	=11	=11	=11	=11	=11	=11	=11	=11	=11	=11
8E\L	#	.	8g#X/L	.	1ryy	1ryy	.	1ryy	00r	.	00r	.
8F#\	.	.	8a/	.	.	.	.	.	.	.	.	.
8D\	6	.	8B/	.	.	.	.	.	.	.	.	.
8E\J	#	.	8g#/J	.	.	.	.	.	.	.	.	.
8AA/L	.	.	8a/L	.	.	.	.	.	.	.	.	.
*	*	*below	*	*	*	*	*	*	*	*	*	*
!	!	!LO:DY:t=p&colon;	!	!	!	!	!	!	!	!	!	!
8AA/	.	p	8A/J	.	.	.	.	.	.	.	.	.
*	*	*	*	*below	*	*	*	*	*	*	*	*
!	!	!	!	!LO:DY:t=p&colon;	!	!	!	!	!	!	!	!
8AA/	.	.	8e/L	p	.	.	.	.	.	.	.	.
8AA/J	.	.	8e/J	.	.	.	.	.	.	.	.	.
=12	=12	=12	=12	=12	=12	=12	=12	=12	=12	=12	=12	=12
8AA/L	.	.	8e/L	.	1ryy	1ryy	.	1ryy	.	.	.	.
8AA/	.	.	8e/	.	.	.	.	.	.	.	.	.
8D/	6	.	8f#/	.	.	.	.	.	.	.	.	.
8D/J	5	.	8f#/J	.	.	.	.	.	.	.	.	.
8E\L	#	.	8e/L	.	.	.	.	.	.	.	.	.
8E\J	.	.	8e/	.	.	.	.	.	.	.	.	.
8C#/L	6	.	8e/	.	.	.	.	.	.	.	.	.
8AA/J	.	.	8e/J	.	.	.	.	.	.	.	.	.
=13	=13	=13	=13	=13	=13	=13	=13	=13	=13	=13	=13	=13
8E\L	#	.	8g#X/L	.	1ryy	1ryy	.	1ryy	.	.	.	.
8E\	.	.	8g#/	.	.	.	.	.	.	.	.	.
8G#X\	6	.	8e/	.	.	.	.	.	.	.	.	.
8G#\J	.	.	8e/J	.	.	.	.	.	.	.	.	.
8G#\L	.	.	8e/L	.	.	.	.	.	.	.	.	.
8G#\	.	.	8e/	.	.	.	.	.	.	.	.	.
8E\	#	.	8g#X/	.	.	.	.	.	.	.	.	.
8E\J	.	.	8g#/J	.	.	.	.	.	.	.	.	.
!	!	!	!LO:LB:g=original	!	!	!	!	!	!	!	!	!
=14	=14	=14	=14	=14	=14	=14	=14	=14	=14	=14	=14	=14
8E#X\L	7	.	8g#X/L	.	1ryy	1ryy	.	1ryy	.	.	.	.
8E#\	.	.	8g#/	.	.	.	.	.	.	.	.	.
8E#\	6	.	8g#/	.	.	.	.	.	.	.	.	.
8E#\J	5	.	8g#/J	.	.	.	.	.	.	.	.	.
8F#\L	.	.	8f#/L	.	.	.	.	.	.	.	.	.
8F#\	.	.	8f#/	.	.	.	.	.	.	.	.	.
8E#\	6	.	8g#X/	.	.	.	.	.	.	.	.	.
8E#\J	.	.	8g#/J	.	.	.	.	.	.	.	.	.
=15	=15	=15	=15	=15	=15	=15	=15	=15	=15	=15	=15	=15
8F#\L	#	.	8a/L	.	1ryy	1ryy	.	1ryy	00r	.	00r	.
8F#\	.	.	8a/	.	.	.	.	.	.	.	.	.
8B\	.	.	8f#/	.	.	.	.	.	.	.	.	.
8A#X\J	.	.	8f#/J	.	.	.	.	.	.	.	.	.
8B\L	.	.	8f#/L	.	.	.	.	.	.	.	.	.
8B\J	.	.	8f#/	.	.	.	.	.	.	.	.	.
!LO:LB:g=original	!	!	!	!	!	!	!	!	!	!	!	!
8B\L	.	.	8f#/	.	.	.	.	.	.	.	.	.
8B\J	.	.	8f#/J	.	.	.	.	.	.	.	.	.
=16	=16	=16	=16	=16	=16	=16	=16	=16	=16	=16	=16	=16
8E\L	6	.	8f#/L	.	1ryy	1ryy	.	1ryy	.	.	.	.
8E\	.	.	8f#/	.	.	.	.	.	.	.	.	.
8E\	5	.	8f#/	.	.	.	.	.	.	.	.	.
8E\J	.	.	8f#/J	.	.	.	.	.	.	.	.	.
8E\L	#4 2	.	8f#/L	.	.	.	.	.	.	.	.	.
8E\	.	.	8f#/	.	.	.	.	.	.	.	.	.
8D\	6	.	8f#/	.	.	.	.	.	.	.	.	.
8E\J	.	.	8b/J	.	.	.	.	.	.	.	.	.
=17	=17	=17	=17	=17	=17	=17	=17	=17	=17	=17	=17	=17
4F#\	4	.	4b/	.	1ryy	1ryy	.	1ryy	.	.	.	.
4FF#/	#	.	4a#X/	.	.	.	.	.	.	.	.	.
8BB/L	.	.	16b\LL	.	.	.	.	.	.	.	.	.
.	.	.	16dd#X\	.	.	.	.	.	.	.	.	.
!	!	!LO:DY:t=f.	!	!	!	!	!	!	!	!	!	!
8BB/	.	f	16cc#\	.	.	.	.	.	.	.	.	.
.	.	.	16b\JJ	.	.	.	.	.	.	.	.	.
8D/	.	.	8ff#\L	.	.	.	.	.	.	.	.	.
8BB/J	.	.	8bb\J	.	.	.	.	.	.	.	.	.
=18	=18	=18	=18	=18	=18	=18	=18	=18	=18	=18	=18	=18
!LO:TX:t=P:problem=mixed beam	!	!	!	!	!	!	!	!	!	!	!	!
8F#\L	#	.	16aa#X\LL	.	1ryy	1ryy	.	1ryy	.	.	.	.
.	.	.	16gg\J	.	.	.	.	.	.	.	.	.
8F#\	.	.	8ff#\J	.	.	.	.	.	.	.	.	.
8B\	.	.	16r	.	.	.	.	.	.	.	.	.
.	.	.	16dd#X\LL	.	.	.	.	.	.	.	.	.
8BB/J	.	.	16cc#\	.	.	.	.	.	.	.	.	.
.	.	.	16b\JJ	.	.	.	.	.	.	.	.	.
!	!	!	!LO:LB:g=original	!	!	!	!	!	!	!	!	!
8F#\L	#	.	8a#X/L	.	.	.	.	.	.	.	.	.
8G\	.	.	8b/	.	.	.	.	.	.	.	.	.
8E\	6	.	8c#/	.	.	.	.	.	.	.	.	.
8F#\J	#	.	8a#/J	.	.	.	.	.	.	.	.	.
=19	=19	=19	=19	=19	=19	=19	=19	=19	=19	=19	=19	=19
8BB/L	.	.	8b/L	.	1ryy	1ryy	.	1ryy	4.f#\	ſca-	00r	.
!	!	!LO:DY:t=p&colon;	!	!	!	!	!	!	!	!	!	!
8BB/	.	p	8B/J	.	.	.	.	.	.	.	.	.
8D/	.	.	8f#/L	p	.	.	.	.	.	.	.	.
8BB/J	.	.	8f#/J	.	.	.	.	.	16b\	-pu-	.	.
.	.	.	.	.	.	.	.	.	16b\	-lis	.	.
!LO:TX:t=P:problem=mixed beam	!	!	!	!	!	!	!	!	!	!	!	!
8F#\L	#	.	8f#/L	.	.	.	.	.	16a#X\LL	su-	.	.
.	.	.	.	.	.	.	.	.	16g\JJ	.	.	.
8F#\	.	.	8f#/	.	.	.	.	.	8f#\	-is	.	.
8AA#X/	6	.	8f#/	.	.	.	.	.	8f#\	o-	.	.
8BB/J	.	.	8f#/J	.	.	.	.	.	8b\	-bum-	.	.
=20	=20	=20	=20	=20	=20	=20	=20	=20	=20	=20	=20	=20
*	*	*	*	*	*	*	*	*	*Xtuplet	*	*	*
8F#\L	6	.	8g/L	.	1ryy	1ryy	.	1ryy	24a\LL	-bra-	.	.
.	.	.	.	.	.	.	.	.	24g\	.	.	.
.	.	.	.	.	.	.	.	.	24f#\JJ	.	.	.
8E\	.	.	8g/	.	.	.	.	.	4g\	.	.	.
8C#\	5	.	8g/	.	.	.	.	.	.	.	.	.
!	!	!	!	!	!	!	!	!	!LO:LB:g=original	!	!	!
8D\J	.	.	8f#/J	.	.	.	.	.	8f#\	-bit	.	.
8G\L	7	.	8f#/L	.	.	.	.	.	4f#\	ti-	.	.
8G\	.	.	8f#/	.	.	.	.	.	.	.	.	.
8G\	6	.	8e/	.	.	.	.	.	4eT\	.	.	.
8G\J	.	.	8e/J	.	.	.	.	.	.	.	.	.
!LO:LB:g=original	!	!	!	!	!	!	!	!	!	!	!	!
=21	=21	=21	=21	=21	=21	=21	=21	=21	=21	=21	=21	=21
8F#\L	#	.	8f#/L	.	1ryy	1ryy	.	1ryy	4f#\	-bi	.	.
8F#\	.	.	8f#/	.	.	.	.	.	.	.	.	.
!	!	!	!	!	!	!	!	!	!LO:SIC:v:l:s=et	!	!	!
8D\	.	.	8f#/	.	.	.	.	.	8a\	&	.	.
8D\J	.	.	8f#/J	.	.	.	.	.	8a\	sub	.	.
8D/L	6	.	8f#/L	.	.	.	.	.	8b\L	pen-	.	.
8D/	5	.	8f#/	.	.	.	.	.	8a\J	.	.	.
8C#/	6	.	8e/	.	.	.	.	.	8a\L	-nis	.	.
8D/J	6	.	8f#/J	.	.	.	.	.	8b\J	.	.	.
=22	=22	=22	=22	=22	=22	=22	=22	=22	=22	=22	=22	=22
8E\L	6	.	8c#/L	.	1ryy	1ryy	.	1ryy	8.gT\L	e-	.	.
8E\	.	.	8c#/	.	.	.	.	.	.	.	.	.
.	.	.	.	.	.	.	.	.	(32f#\LL	.	.	.
.	.	.	.	.	.	.	.	.	32g\JJJ)	.	.	.
8F#\	6	.	8d/	.	.	.	.	.	8a\	-jus	.	.
8G\J	.	.	8g/J	.	.	.	.	.	16b\LL	spe-	.	.
.	.	.	.	.	.	.	.	.	16g\JJ	.	.	.
!LO:TX:t=P:problem=mixed beam	!	!	!LO:TX:t=P:problem=mixed beam	!	!	!	!	!	!	!	!	!
8A\L	.	.	8f#/L	.	.	.	.	.	4f#\	-ra-	.	.
8A\	4	.	8f#/	.	.	.	.	.	.	.	.	.
8AA/	.	.	8e/	.	.	.	.	.	4eT\	.	.	.
8AA/J	3	.	8cc#\J	.	.	.	.	.	.	.	.	.
=23	=23	=23	=23	=23	=23	=23	=23	=23	=23	=23	=23	=23
!	!	!LO:DY:t=f.	!	!	!	!	!	!	!	!	!	!
8D\L	.	f	16dd\LL	f	1ryy	1ryy	.	1ryy	4d\	-bis	1r	.
.	.	.	16ff#\	.	.	.	.	.	.	.	.	.
8D\	.	.	16ee\	.	.	.	.	.	.	.	.	.
.	.	.	16dd\JJ	.	.	.	.	.	.	.	.	.
8F#\	.	.	8aa\L	.	.	.	.	.	4r	.	.	.
8D\J	.	.	8ddd\J	.	.	.	.	.	.	.	.	.
8A\L	.	.	16ccc#\LL	.	.	.	.	.	2r	.	.	.
.	.	.	16bb\J	.	.	.	.	.	.	.	.	.
8A\	.	.	8aa\J	.	.	.	.	.	.	.	.	.
!	!	!	!LO:PB:g=original	!	!	!	!	!	!	!	!	!
8d\	.	.	16r	.	.	.	.	.	.	.	.	.
.	.	.	16ff#\LL	.	.	.	.	.	.	.	.	.
8D\J	.	.	16ee\	.	.	.	.	.	.	.	.	.
.	.	.	16dd\JJ	.	.	.	.	.	.	.	.	.
=24	=24	=24	=24	=24	=24	=24	=24	=24	=24	=24	=24-	=24
!	!	!	!LO:TX:t=P:problem=mixed beam	!	!	!	!	!	!	!	!	!
8A\L	.	.	8cc#\L	.	1ryy	1ryy	.	1ryy	2r	.	2r	.
8B\	.	.	8dd\	.	.	.	.	.	.	.	.	.
8G\	6	.	8e/	.	.	.	.	.	.	.	.	.
8A\J	.	.	8cc#\J	.	.	.	.	.	.	.	.	.
!LO:TX:t=P:problem=mixed beam	!	!	!	!	!	!	!	!	!	!	!	!
8D/L	.	.	8dd\L	.	.	.	.	.	8r	.	8r	.
!LO:TX:a:i:t=Tutti.	!	!	!	!LO:DY:t=f.	!	!	!	!	!	!	!	!
8d\	.	.	8ff#\	f	.	.	.	.	4a\	ſcu-	4ff#\	Scu-
8d\	.	.	8ff#\	.	.	.	.	.	.	.	.	.
8d\J	.	.	8ff#\J	.	.	.	.	.	8a\	-tô	8ff#\	-tô
=25	=25	=25	=25	=25	=25	=25	=25	=25	=25	=25	=25	=25
!	!	!	!LO:TX:t=P:problem=mixed beam	!	!	!	!	!	!	!	!	!
8D\L	.	.	16ff#\LL	.	1ryy	1ryy	.	1ryy	8f#\	cir-	8dd\	cir-
.	.	.	16f#/	.	.	.	.	.	.	.	.	.
16E\L	.	.	16g/	.	.	.	.	.	16g\LL	-cum	16cc#\LL	-cum-
16F#\JJ	.	.	16a/JJ	.	.	.	.	.	16a\JJ	.	16dd\JJ	.
16G\LL	.	.	16b\LL	.	.	.	.	.	4b\	da-	16b\LL	-da-
16A\	.	.	16cc#\	.	.	.	.	.	.	.	16cc#\	.
16B\	.	.	16dd\	.	.	.	.	.	.	.	16dd\	.
16c#\JJ	.	.	16ee\JJ	.	.	.	.	.	.	.	16ee\JJ	.
8d\L	.	.	8ff#\L	.	.	.	.	.	8a\	-bit	8ff#\	.
8A\J	.	.	8ee\J	.	.	.	.	.	8a\	te	16ee\	-bit
.	.	.	.	.	.	.	.	.	.	.	16ee\	te
!LO:LB:g=original	!	!	!	!	!	!	!	!	!LO:LB:g=original	!	!	!
8d\L	.	.	8ff#\L	.	.	.	.	.	8a\	ve-	8ff#\	ve-
16c#\L	.	.	16ee\L	.	.	.	.	.	16a\	-ri-	16ee\	-ri-
16B\JJ	.	.	16dd\JJ	.	.	.	.	.	16a\	-tas	16dd\	-tas
=26	=26	=26	=26	=26	=26	=26	=26	=26	=26	=26	=26	=26
8A\L	.	.	8ee\L	.	1ryy	2..ryy	.	1ryy	8a\	e-	8cc#\	e-
8A\	.	.	8ee\	.	.	.	.	.	8a\	-jus,	8cc#\	-jus
8A\	.	.	8ee\	.	.	.	.	.	8a\	scu-	8cc#\	scu-
8A\J	.	.	8ee\J	.	.	.	.	.	8a\	-tô	8cc#\	-tô
8AA/L	.	.	8a\L	.	.	.	.	.	8a\	cir-	8cc#\	cir-
16BB/L	.	.	16b\L	.	.	.	.	.	8a\	-cum	16dd\LL	-cum
16C#/JJ	.	.	16cc#\JJ	.	.	.	.	.	.	.	16ee\JJ	.
!	!	!	!	!	!	!	!	!	!	!	!LO:LB:g=original	!
16D\LL	.	.	16dd\LL	.	.	.	.	.	4a\	da-	4ff#\	da-
16E\	.	.	16ee\	.	.	.	.	.	.	.	.	.
16F#\	.	.	16ff#\	.	.	8G#X\	.	.	.	.	.	.
16G#X\JJ	.	.	16gg#X\JJ	.	.	.	.	.	.	.	.	.
=27	=27	=27	=27	=27	=27	=27	=27	=27	=27	=27	=27	=27
8A\L	.	.	8aa\L	.	1ryy	8A\	.	1ryy	8a\	-bit	8ee\	-bit
8F#\	6	.	8aa\	.	.	16F#\	bit	.	8a\	te	8ff#\	te
.	.	.	.	.	.	16F#\	te	.	.	.	.	.
8G\	.	.	8dd\	.	.	8G\	ve-	.	8b\	ve-	8dd\	ve-
8E\J	6	.	8gg\J	.	.	16E\	-ri-	.	16a\	-ri-	16ee\	-ri-
.	.	.	.	.	.	16E\	-tas	.	16a\	-tas	16ee\	-tas
!	!	!	!LO:LB:g=original	!	!	!	!	!	!	!	!	!
8D/L	.	.	8ff#\L	.	.	8D\	e-	.	8a\	e-	8ff#\	e-
8DD/J	.	.	8ff#\	.	.	8D\	-jus	.	8a\	-jus	8ff#\	-jus
4D/	.	.	8ffn\	.	.	8D\	non	.	8fn\	non	8a\	non
.	.	.	8ff\J	.	.	8D\	ti-	.	8f\	ti-	8a\	ti-
=28	=28	=28	=28	=28	=28	=28	=28	=28	=28	=28	=28	=28
4C#/	-7	.	4gg\	.	1ryy	4C#/	-me-	1ryy	4g\	-me-	4b-X\	-me-
4D/	n	.	4ffn\	.	.	4D/	-bis	.	4f#\	-bis	4a\	-bis
4d\	n	.	8ff\L	.	.	8d\	à	.	8a\	à	8ffn\	à
.	.	.	8ff\J	.	.	8d\	ti	.	8a\	ti-	8ff\	ti-
8G#X\L	7	.	8ee\L	.	.	4ryy	.	.	8b\L	-mo-	8ff\L	-mo-
8A\J	#	.	8dd\J	.	.	.	.	.	8a\J	.	8ee\J	.
!	!	!	!	!	!	!LO:LB:g=original	!	!	!	!	!	!
=29	=29	=29	=29	=29	=29	=29	=29	=29	=29	=29	=29	=29
!	!	!	!	!	!	!LO:TX:b:t=P:problem=nuty niewidoczne, widać tylko tekst słowny "mo-re timore"	!	!	!	!	!	!
8Fn\L	6	.	8ffn\L	.	1ryy	2ryy	.	1ryy	8a\	-re	8dd\	-re
8D\J	.	.	8ff\J	.	.	.	.	.	8a\	noc-	8dd\	ti-
!	!	!	!	!	!	!	!	!	!LO:LB:g=original	!	!	!
4.B-X\	7	.	4ff\	.	.	.	.	.	8a\L	-tur-	4.dd\	-mo-
.	6	.	.	.	.	.	.	.	16g\L	.	.	.
.	.	.	.	.	.	.	.	.	16f#\JJ	.	.	.
.	.	.	4.gg\	.	.	8ryy	.	.	8g\	-no	.	.
16A\LL	.	.	.	.	.	8D	noc-	.	8g\	ti-	16cc#X\LL	.
16G\JJ	.	.	.	.	.	.	.	.	.	.	16b\JJ	.
8A\L	#	.	.	.	.	8G\L	tur-	.	8g\L	-mo-	8cc#\	-re
8D\J	.	.	16ff\LL	.	.	8D\J	.	.	8a\J	.	8dd\	noc-
.	.	.	16ee\JJ	.	.	.	.	.	.	.	.	.
=30	=30	=30	=30	=30	=30	=30	=30	=30	=30	=30	=30	=30
2AA/	4	.	4ffn\	.	1ryy	2AA/	.	1ryy	8a\	-re	4dd\	-tur-
.	.	.	.	.	.	.	.	.	8a\	noc-	.	.
.	#	.	4ee\	.	.	.	.	.	4a\	-tur-	4cc#\	.
!	!	!	!	!	!	!	!	!	!	!	!LO:LB:g=original	!
8D\L	#	.	16dd\LL	.	.	4D/	-no	.	4a\	-no	4dd\	-no
.	.	.	16ff#X\	.	.	.	.	.	.	.	.	.
8D\	.	.	16ee\	.	.	.	.	.	.	.	.	.
.	.	.	16dd\JJ	.	.	.	.	.	.	.	.	.
!LO:TX:a:t=Solo	!	!	!	!	!	!	!	!	!	!	!	!
8F#\	.	.	8aa\L	.	.	4r	.	.	4r	.	4r	.
8D\J	.	.	8ddd\J	.	.	.	.	.	.	.	.	.
=31	=31	=31	=31	=31	=31	=31	=31	=31	=31	=31	=31	=31
8A\L	.	.	16ccc#\LL	.	1ryy	1r	.	1ryy	00r	.	00r	.
.	.	.	16bb\J	.	.	.	.	.	.	.	.	.
8A\J	.	.	8aa\J	.	.	.	.	.	.	.	.	.
!LO:LB:g=original	!	!	!	!	!	!	!	!	!	!	!	!
8d\L	.	.	16r	.	.	.	.	.	.	.	.	.
.	.	.	16ff#\LL	.	.	.	.	.	.	.	.	.
8G\J	.	.	16ee\	.	.	.	.	.	.	.	.	.
.	.	.	16dd\JJ	.	.	.	.	.	.	.	.	.
!	!	!	!LO:TX:t=P:problem=mixed beam	!	!	!	!	!	!	!	!	!
8A\L	.	.	8cc#\L	.	.	.	.	.	.	.	.	.
8B\	.	.	8dd\	.	.	.	.	.	.	.	.	.
8G\	6	.	8e/	.	.	.	.	.	.	.	.	.
8A\J	.	.	8cc#\J	.	.	.	.	.	.	.	.	.
!	!	!	!LO:LB:g=original	!	!	!	!	!	!	!	!	!
=32	=32	=32	=32	=32	=32	=32	=32	=32	=32	=32	=32	=32
8D\L	.	.	8dd\L	.	1ryy	4D\	A-	1ryy	.	.	.	.
!	!	!	!	!LO:DY:t=p.	!	!	!	!	!	!	!	!
8D\	.	.	8dd\	p	.	.	.	.	.	.	.	.
8F#\	.	.	8dd\	.	.	8F#\L	-sa-	.	.	.	.	.
8A\J	.	.	8ee\J	.	.	8A\J	.	.	.	.	.	.
8d\L	.	.	8ff#\L	.	.	8d\	-git-	.	.	.	.	.
16c#\L	.	.	16ee\L	.	.	16c#\	-ta	.	.	.	.	.
16B\JJ	.	.	16dd\JJ	.	.	16B\	vo-	.	.	.	.	.
16A\LL	.	.	8ee\L	.	.	16A\LL	-lan-	.	.	.	.	.
16G\	.	.	.	.	.	16G\	.	.	.	.	.	.
16F#\	.	.	16dd\L	.	.	16F#\	.	.	.	.	.	.
16E\JJ	.	.	16cc#\JJ	.	.	16E\JJ	.	.	.	.	.	.
=33	=33	=33	=33	=33	=33	=33	=33	=33	=33	=33	=33	=33
8D\L	.	.	8dd\L	.	1ryy	8D\	-te	1ryy	.	.	.	.
8d\	.	.	8ff#\	.	.	8d\	in	.	.	.	.	.
8B\	6	.	8dd\	.	.	8B\	di-	.	.	.	.	.
8c#\J	.	.	8ee\J	.	.	8c#\	-e	.	.	.	.	.
8d\L	.	.	8ff#\L	.	.	8d\	à	.	.	.	.	.
!	!	!	!	!	!	!LO:LB:g=original	!	!	!	!	!	!
16c#\L	.	.	16ee\L	.	.	16c#\LL	ne-	.	.	.	.	.
16B\JJ	.	.	16dd\JJ	.	.	16B\JJ	.	.	.	.	.	.
8A\L	.	.	8cc#\L	.	.	8A\	-go-	.	.	.	.	.
8B\J	.	.	8dd\J	.	.	8B\	-ti-	.	.	.	.	.
=34	=34	=34	=34	=34	=34	=34	=34	=34	=34	=34	=34	=34
8F#\L	6	.	8dd\L	.	1ryy	8F#\	-o	1ryy	.	.	.	.
8G#X\J	.	.	16ee\L	.	.	8G#X\	pe-	.	.	.	.	.
.	.	.	16dd\JJ	.	.	.	.	.	.	.	.	.
8A\L	.	.	8cc#\L	.	.	4A\	-ram-	.	.	.	.	.
16G#X\L	.	.	8b\J	.	.	.	.	.	.	.	.	.
16F#\JJ	.	.	.	.	.	.	.	.	.	.	.	.
8E\L	#	.	8b\L	.	.	16G#\LL	-bu-	.	.	.	.	.
.	.	.	.	.	.	16F#\JJ	.	.	.	.	.	.
8D\	.	.	8b\J	.	.	16E\LL	-lan-	.	.	.	.	.
.	.	.	.	.	.	16D\JJ	.	.	.	.	.	.
8C#\	6	.	8ee\L	.	.	8C#/	-te	.	.	.	.	.
8F#\J	.	.	16dd\L	.	.	8F#\	in	.	.	.	.	.
.	.	.	16cc#\JJ	.	.	.	.	.	.	.	.	.
=35	=35	=35	=35	=35	=35	=35	=35	=35	=35	=35	=35	=35
2BB/	7	.	2dd\	.	1ryy	4.BB/	te-	1ryy	00r	.	00r	.
.	6\	.	.	.	.	8BB/	-ne-	.	.	.	.	.
!LO:TX:t=P:problem=mixed beam	!	!	!	!	!	!	!	!	!	!	!	!
8AA/L	.	.	16cc#\LL	.	.	4AA/	-bris	.	.	.	.	.
.	.	.	16aa\	.	.	.	.	.	.	.	.	.
8A\	.	.	16ee\	.	.	.	.	.	.	.	.	.
.	.	.	16cc#\JJ	.	.	.	.	.	.	.	.	.
8A\	.	.	8a/L	.	.	8r	.	.	.	.	.	.
8A\J	.	.	8cc#/J	.	.	16A\	ab	.	.	.	.	.
!	!	!	!	!	!	!LO:TX:a:t=P:problem=dwie zamazane nuty z tekstem "in curs"	!	!	!	!	!	!
.	.	.	.	.	.	16ryy	.	.	.	.	.	.
!LO:LB:g=original	!	!	!LO:LB:g=original	!	!	!	!	!	!	!	!	!
=36	=36	=36	=36	=36	=36	=36	=36	=36	=36	=36	=36	=36
!LO:TX:t=P:problem=mixed beam	!	!	!	!	!	!	!	!	!	!	!	!
8G#X\L	6	.	8b/L	.	1ryy	4ryy	.	1ryy	.	.	.	.
8G#\	.	.	8b/	.	.	.	.	.	.	.	.	.
!	!	!	!	!	!	!LO:SIC:v:l:s=et	!	!	!	!	!	!
8F#\	7	.	8a/	.	.	8A\	&	.	.	.	.	.
8BB/J	7	.	8f#/J	.	.	8D\	dae-	.	.	.	.	.
8E\L	7 #	.	8g#X/L	.	.	8.E\	-mo-	.	.	.	.	.
8E\	.	.	8g#/	.	.	.	.	.	.	.	.	.
.	.	.	.	.	.	16E\	-ni-	.	.	.	.	.
8F#\	6 5	.	8a/	.	.	8F#\	-o	.	.	.	.	.
8D\J	.	.	8f#/J	.	.	8D\	me-	.	.	.	.	.
!	!	!	!	!	!	!LO:LB:g=original	!	!	!	!	!	!
=37	=37	=37	=37	=37	=37	=37	=37	=37	=37	=37	=37	=37
8E\L	#	.	8g#X/L	.	1ryy	8E\	-ri-	1ryy	.	.	.	.
16C#\L	6	.	8a/	.	.	16C#\LL	-di-	.	.	.	.	.
16D\JJ	.	.	.	.	.	16D\JJ	.	.	.	.	.	.
!LO:TX:t=P:problem=mixed beam	!	!	!	!	!	!	!	!	!	!	!	!
8E\L	4	.	8a/	.	.	4E\	-a-	.	.	.	.	.
8EE/J	#	.	8g#/J	.	.	.	.	.	.	.	.	.
!LO:TX:t=P:problem=mixed beam	!	!	!	!	!	!	!	!	!	!	!	!
8AA/L	.	.	16a\LL	.	.	4AA/	-no	.	.	.	.	.
!	!	!	!	!LO:DY:t=f.	!	!	!	!	!	!	!	!
.	.	.	16cc#\	f	.	.	.	.	.	.	.	.
8A\	.	.	16b\	.	.	.	.	.	.	.	.	.
.	.	.	16a\JJ	.	.	.	.	.	.	.	.	.
8c#\	.	.	8ee\L	.	.	4r	.	.	.	.	.	.
8A\J	.	.	8aa\J	.	.	.	.	.	.	.	.	.
=38	=38	=38	=38	=38	=38	=38	=38	=38	=38	=38	=38	=38
!LO:TX:t=P:problem=mixed beam	!	!	!	!	!	!	!	!	!	!	!	!
8E\L	#	.	16gg#X\LL	.	1ryy	00r	.	1ryy	.	.	.	.
.	.	.	16ff#\J	.	.	.	.	.	.	.	.	.
8E\	.	.	8ee\J	.	.	.	.	.	.	.	.	.
8A\	.	.	16r	.	.	.	.	.	.	.	.	.
.	.	.	16cc#\LL	.	.	.	.	.	.	.	.	.
8AA/J	.	.	16b\	.	.	.	.	.	.	.	.	.
.	.	.	16a\JJ	.	.	.	.	.	.	.	.	.
8E\L	4	.	8g#X/L	.	.	.	.	.	.	.	.	.
8F#\	.	.	8a/	.	.	.	.	.	.	.	.	.
8D\	6	.	8B/	.	.	.	.	.	.	.	.	.
8E\J	#	.	8g#/J	.	.	.	.	.	.	.	.	.
=39	=39	=39	=39	=39	=39	=39	=39	=39	=39	=39	=39	=39
!LO:TX:t=P:problem=mixed beam	!	!	!	!LO:DY:t=p&colon;	!	!	!	!	!	!	!	!
8AA/L	.	.	8a/L	p	1ryy	.	.	1ryy	00r	.	8a\	Ca-
8A\	.	.	8e/	.	.	.	.	.	.	.	4cc#\	-dent
8A\	.	.	8e/	.	.	.	.	.	.	.	.	.
8A\J	.	.	8e/J	.	.	.	.	.	.	.	16b\LL	à
.	.	.	.	.	.	.	.	.	.	.	16a\JJ	.
8G#X\L	6	.	8e/L	.	.	.	.	.	.	.	8ee\	la-
8G#\	.	.	8e/	.	.	.	.	.	.	.	16e/	-te-
.	.	.	.	.	.	.	.	.	.	.	16e/	-re
8G#\	.	.	8e/	.	.	.	.	.	.	.	8r	.
8G#\J	.	.	8e/J	.	.	.	.	.	.	.	8e/	à
!	!	!	!LO:LB:g=original	!	!	!	!	!	!	!	!	!
=40	=40	=40	=40	=40	=40	=40	=40	=40	=40	=40	=40	=40
8F#\L	.	.	8f#/L	.	1ryy	.	.	1ryy	.	.	8a\	la-
8F#\	.	.	8f#/	.	.	.	.	.	.	.	16b\	-te-
.	.	.	.	.	.	.	.	.	.	.	16cc#\	-re
8D#X\	6	.	8f#/	.	.	.	.	.	.	.	8b\	tu-
8D#\J	5	.	8f#/J	.	.	.	.	.	.	.	8a\	-o
8E\L	.	.	16g#X/LL	.	.	.	.	.	.	.	16g#X/LL	mil-
.	.	.	16e/	.	.	.	.	.	.	.	16f#/JJ	.
8E\	#	.	16g#/	.	.	.	.	.	.	.	8e/	-le
.	.	.	16b/JJ	.	.	.	.	.	.	.	.	.
!	!	!	!LO:TX:t=P:problem=mixed beam	!	!	!	!	!	!	!	!	!
8E\	.	.	8ee\L	.	.	.	.	.	.	.	8r	.
!	!	!	!	!	!	!	!	!	!	!	!LO:SIC:v:l:s=et	!
8E\J	.	.	8e/J	.	.	.	.	.	.	.	8e/	&
!LO:PB:g=original	!	!	!	!	!	!	!	!	!	!	!	!
=41	=41	=41	=41	=41	=41	=41	=41	=41	=41	=41	=41	=41
8C#/L	6	.	8e/L	.	1ryy	.	.	1ryy	.	.	16a\LL	de-
.	.	.	.	.	.	.	.	.	.	.	16g#X\J	.
8C#/	.	.	8e/	.	.	.	.	.	.	.	[8a\J	.
8C#/	.	.	8e/	.	.	.	.	.	.	.	8a\]	.
8C#/J	.	.	8e/J	.	.	.	.	.	.	.	16cc#\LL	-cem
.	.	.	.	.	.	.	.	.	.	.	16dd\JJ	.
!	!	!	!	!	!	!	!	!	!	!	!LO:LB:g=original	!
8C#/L	.	.	8e/L	.	.	.	.	.	.	.	16ee\	mil-
.	.	.	.	.	.	.	.	.	.	.	16ee\	-li-
8C#/	.	.	8e/	.	.	.	.	.	.	.	16cc#\	-a
.	.	.	.	.	.	.	.	.	.	.	16dd\	à
!	!	!	!	!	!	!	!	!	!	!	!LO:TX:a:t=P:problem=skreślona kreska taktowa	!
8C#/	.	.	8e/	.	.	.	.	.	.	.	8ee\	dex-
8C#/J	.	.	8e/J	.	.	.	.	.	.	.	8gn\	-tris
=42	=42	=42	=42	=42	=42	=42	=42	=42	=42	=42	=42	=42
8D\L	.	.	8d/L	.	1ryy	00r	.	1ryy	.	.	8g/	tu-
8D\	.	.	8d/	.	.	.	.	.	.	.	8f#/	-is
8D\	.	.	8f#/	.	.	.	.	.	.	.	8r	.
8D\J	.	.	8f#/J	.	.	.	.	.	.	.	16a\	ad
.	.	.	.	.	.	.	.	.	.	.	16f#/	te
8G\L	.	.	8d/L	.	.	.	.	.	.	.	4b\	au-
8G\	.	.	8d/	.	.	.	.	.	.	.	.	.
8F#\	6	.	8d/	.	.	.	.	.	.	.	8a\	-tem
8G\J	.	.	8d/J	.	.	.	.	.	.	.	8a\	non
=43	=43	=43	=43	=43	=43	=43	=43	=43	=43	=43	=43	=43
8E\L	.	.	8g/L	.	1ryy	.	.	1ryy	0r	.	8g\	ap-
8G\	.	.	8b/	.	.	.	.	.	.	.	8ee\	-pro-
8A\	.	.	8a/	.	.	.	.	.	.	.	8cc#\	-pin-
8D\J	.	.	8f#/J	.	.	.	.	.	.	.	16dd\LL	-qua-
.	.	.	.	.	.	.	.	.	.	.	16ee\JJ	.
4A\	.	.	4f#/	.	.	.	.	.	.	.	4dd\	.
4AA/	4	.	4e/	.	.	.	.	.	.	.	4cc#\	.
.	3	.	.	.	.	.	.	.	.	.	.	.
=44	=44	=44	=44	=44	=44	=44	=44	=44	=44	=44	=44	=44
!	!	!	!	!LO:DY:t=f.	!	!	!	!	!	!	!	!
8D\L	.	.	16dd\LL	f	1ryy	.	.	1ryy	.	.	4dd\	-bit
.	.	.	16ff#\	.	.	.	.	.	.	.	.	.
8D\	.	.	16ee\	.	.	.	.	.	.	.	.	.
.	.	.	16dd\JJ	.	.	.	.	.	.	.	.	.
!	!	!	!LO:LB:g=original	!	!	!	!	!	!	!	!	!
8F#\	.	.	8aa\L	.	.	.	.	.	.	.	4r	.
8D\J	.	.	8ddd\J	.	.	.	.	.	.	.	.	.
8A\L	.	.	16ccc#\LL	.	.	.	.	.	.	.	2r	.
.	.	.	16bb\J	.	.	.	.	.	.	.	.	.
8A\	.	.	8aa\J	.	.	.	.	.	.	.	.	.
8d\	.	.	16r	.	.	.	.	.	.	.	.	.
.	.	.	16ff#\LL	.	.	.	.	.	.	.	.	.
8D\J	.	.	16ee\	.	.	.	.	.	.	.	.	.
.	.	.	16dd\JJ	.	.	.	.	.	.	.	.	.
=45	=45	=45	=45	=45	=45	=45	=45	=45	=45-	=45	=45	=45
!	!	!	!LO:TX:t=P:problem=mixed beam	!	!	!	!	!	!	!	!	!
8A\L	.	.	8cc#\L	.	1ryy	.	.	1ryy	2r	.	00r	.
8B\	.	.	8dd\	.	.	.	.	.	.	.	.	.
8G\	6	.	8e/	.	.	.	.	.	.	.	.	.
8A\J	.	.	8cc#\J	.	.	.	.	.	.	.	.	.
!	!	!	!	!LO:DY:t=p.	!	!	!	!	!	!	!	!
8D\L	.	.	8dd\L	p	.	.	.	.	(4a\	Ve-	.	.
8D\	.	.	8dd\J	.	.	.	.	.	.	.	.	.
8G\	6	.	8b/L	.	.	.	.	.	16g\LL)	.	.	.
.	.	.	.	.	.	.	.	.	16f#\JJ	.	.	.
8G\J	.	.	8g/J	.	.	.	.	.	16e\LL	-rum	.	.
.	.	.	.	.	.	.	.	.	16d\JJ	.	.	.
=46	=46	=46	=46	=46	=46	=46	=46	=46	=46	=46	=46	=46
8A\L	.	.	8e/L	.	1ryy	00r	.	1ryy	4c#t\	ta-	.	.
8A\	.	.	8e/	.	.	.	.	.	.	.	.	.
!	!	!	!	!	!	!	!	!	!LO:TX:a:t=P:problem=ósemka poprawiona na ćwierćnutę	!	!	!
8G\	.	.	8e/	.	.	.	.	.	4d\	-men	.	.
8F#\J	6	.	8f#/J	.	.	.	.	.	.	.	.	.
!LO:LB:g=original	!	!	!	!	!	!	!	!	!	!	!	!
8C#/L	6	.	8a/L	.	.	.	.	.	8e\	o-	.	.
8C#/	.	.	8a/	.	.	.	.	.	16f#\	-cu-	.	.
.	.	.	.	.	.	.	.	.	16g\	-lis	.	.
8D/	.	.	8a/	.	.	.	.	.	8f#\	tu-	.	.
8D/J	.	.	8a/J	.	.	.	.	.	16g\LL	-is	.	.
.	.	.	.	.	.	.	.	.	16a\JJ	.	.	.
=47	=47	=47	=47	=47	=47	=47	=47	=47	=47	=47	=47	=47
!	!	!	!	!	!	!	!	!	!LO:N:vis=8.	!	!	!
8E/L	6	.	8cc#/L	.	1ryy	.	.	1ryy	(8g\	con-	.	.
8D/	.	.	8a/	.	.	.	.	.	16a\LL	.	.	.
.	.	.	.	.	.	.	.	.	16b\JJ)	.	.	.
!	!	!	!	!	!	!	!	!	!LO:LB:g=original	!	!	!
8C#/	.	.	8a/	.	.	.	.	.	8a\	-si-	.	.
8AA/J	.	.	8a/J	.	.	.	.	.	8g\	-de-	.	.
8D/L	.	.	8a/L	.	.	.	.	.	16f#\LL	-ra-	.	.
.	.	.	.	.	.	.	.	.	16e\JJ	.	.	.
8D/	.	.	8a/	.	.	.	.	.	8d\	-bis	.	.
8C#/	.	.	8a/	.	.	.	.	.	8r	.	.	.
!	!	!	!	!	!	!	!	!	!LO:SIC:v:l:s=et	!	!	!
8C#/J	.	.	8a/J	.	.	.	.	.	8a\	&	.	.
=48	=48	=48	=48	=48	=48	=48	=48	=48	=48	=48	=48	=48
8D\L	.	.	8a/L	.	1ryy	.	.	1ryy	8f#\	re-	.	.
8D\	.	.	8a/J	.	.	.	.	.	16g\LL	-tri-	.	.
.	.	.	.	.	.	.	.	.	16a\JJ	.	.	.
!	!	!	!LO:LB:g=original	!	!	!	!	!	!	!	!	!
8F#\	6	.	8dd\L	.	.	.	.	.	8d\	-bu-	.	.
8F#\J	.	.	8dd\J	.	.	.	.	.	8ccn\	-ti-	.	.
!LO:TX:t=P:problem=mixed beam	!	!	!	!	!	!	!	!	!	!	!	!
8G\L	.	.	8b/L	.	.	.	.	.	16b\LL	-o-	.	.
.	.	.	.	.	.	.	.	.	16a\JJ	.	.	.
8G\	.	.	8b/	.	.	.	.	.	8g\	-nem	.	.
8BB/	.	.	8g/	.	.	.	.	.	8r	.	.	.
!	!	!	!	!	!	!	!	!	!LO:SIC:v:l:s=et	!	!	!
8BB/J	6	.	8g/J	.	.	.	.	.	8d\	&	.	.
=49	=49	=49	=49	=49	=49	=49	=49	=49	=49	=49	=49	=49
8Cn/L	.	.	8g/L	.	1ryy	.	.	1ryy	[4e\	re-	0r	.
8C/	.	.	8g/	.	.	.	.	.	.	.	.	.
8C/	.	.	8g/	.	.	.	.	.	16e\LL]	.	.	.
.	.	.	.	.	.	.	.	.	16g\JJ	.	.	.
8C/J	.	.	8g/J	.	.	.	.	.	16f#\LL	-tri-	.	.
.	.	.	.	.	.	.	.	.	16e\JJ	.	.	.
8C/L	6	.	8a/L	.	.	.	.	.	8a\	-bu-	.	.
8C/	.	.	8a/	.	.	.	.	.	16b\LL	-ti-	.	.
.	.	.	.	.	.	.	.	.	16ccn\JJ	.	.	.
8D/	.	.	8a/	.	.	.	.	.	8f#\	-o-	.	.
8C/J	.	.	8a/J	.	.	.	.	.	16e\LL	-nem	.	.
.	.	.	.	.	.	.	.	.	16d\JJ	.	.	.
=50	=50	=50	=50	=50	=50	=50	=50	=50	=50	=50	=50	=50
!LO:TX:t=P:problem=mixed beam	!	!	!	!	!	!	!	!	!	!	!	!
8BB/L	6	.	8g/L	.	1ryy	0r	.	1ryy	16g\LL	pec-	.	.
.	.	.	.	.	.	.	.	.	16f#\JJ	.	.	.
8GG/	.	.	8b/J	.	.	.	.	.	8g\	-ca-	.	.
8G\	.	.	8b\L	.	.	.	.	.	8g\	-to-	.	.
8C#/J	.	.	8ee\J	.	.	.	.	.	16a\	-rum	.	.
.	.	.	.	.	.	.	.	.	16b\	vi-	.	.
!	!	!	!	!	!	!	!	!	!LO:LB:g=original	!	!	!
4D/	4	.	4b/	.	.	.	.	.	4g\	-de-	.	.
4DD/	3	.	4aT/	.	.	.	.	.	4f#\	.	.	.
=51	=51	=51	=51	=51	=51	=51	=51	=51	=51	=51	=51	=51
!	!	!	!	!LO:DY:t=f.	!	!	!	!	!	!	!LO:TX:a:t=P:problem=brak taktu	!
8GG/L	.	.	16g/LL	f	1ryy	.	.	1ryy	4g\	-bis	1ryy	.
.	.	.	16b/	.	.	.	.	.	.	.	.	.
8GG/	.	.	16a/	.	.	.	.	.	.	.	.	.
.	.	.	16g/JJ	.	.	.	.	.	.	.	.	.
8BB/	.	.	8dd\L	.	.	.	.	.	4r	.	.	.
8GG/J	.	.	8gg\J	.	.	.	.	.	.	.	.	.
8D\L	.	.	16ff#\LL	.	.	.	.	.	2r	.	.	.
.	.	.	16ee\J	.	.	.	.	.	.	.	.	.
8D\J	.	.	8dd\J	.	.	.	.	.	.	.	.	.
!LO:LB:g=original	!	!	!	!	!	!	!	!	!	!	!	!
!LO:TX:t=P:problem=mixed beam	!	!	!	!	!	!	!	!	!	!	!	!
8G\L	.	.	16r	.	.	.	.	.	.	.	.	.
.	.	.	16b/LL	.	.	.	.	.	.	.	.	.
8GG/J	.	.	16a/	.	.	.	.	.	.	.	.	.
.	.	.	16g/JJ	.	.	.	.	.	.	.	.	.
!	!	!	!LO:LB:g=original	!	!	!	!	!	!	!	!	!
=52	=52	=52	=52	=52	=52	=52-	=52	=52	=52	=52	=52	=52
8D\L	.	.	8f#/L	.	1ryy	2r	.	1ryy	2r	.	2r	.
8E\	.	.	8g/	.	.	.	.	.	.	.	.	.
8C#\	6	.	8A/	.	.	.	.	.	.	.	.	.
8D\J	.	.	8f#/J	.	.	.	.	.	.	.	.	.
!LO:TX:a:t=P:problem=mixed beam	!	!	!	!	!	!	!	!	!	!	!	!
8GG/L	.	.	8g/L	.	.	8r	.	.	8r	.	8r	.
!LO:TX:a:B:t=T	!	!	!	!	!	!	!	!	!	!	!	!
16G\L	.	.	16b/L	.	.	16G\	Quo-	.	16g\	Quo-	16b\	Quo-
16A\JJ	.	.	16ccn/JJ	.	.	16A\	-ni-	.	16g\	-ni-	16ccn\	-ni-
!	!	!	!	!	!	!	!	!	!	!	!LO:PB:g=original	!
8B\L	6	.	8dd\L	.	.	8B\	-am	.	8g\	-am	8dd\	-am
8F#\J	6	.	8dd\J	.	.	8F#\	tu	.	8a\	tu	8a\	tu
=53	=53	=53	=53	=53	=53	=53	=53	=53	=53	=53	=53	=53
8G\L	.	.	8dd\L	.	1ryy	8G\	Do-	1ryy	8g\	es	8b\	es
16c#\L	.	.	16ee\L	.	.	16cn\LL	-mi-	.	4g\	Do-	16ee\LL	Do-
16A\JJ	.	.	16dd\JJ	.	.	16B\JJ	.	.	.	.	16dd\JJ	.
8c#\L	.	.	8ee\L	.	.	8c\	-ne	.	.	.	8ee\L	.
16B\L	.	.	16dd\L	.	.	16B\LL	es	.	8g\	-mi-	16dd\L	.
16A\JJ	.	.	16ccn\JJ	.	.	16A\JJ	.	.	.	.	16cc#\JJ	.
8B\L	6	.	8dd\L	.	.	16B\LL	spes	.	8g\	-ne	8dd\	.
.	.	.	.	.	.	16A\	.	.	.	.	.	.
8F#\J	6	.	8dd\J	.	.	16G\	.	.	8a\	spes	8dd\	-mi-
.	.	.	.	.	.	16F#\JJ	.	.	.	.	.	.
16G\LL	.	.	16b\LL	.	.	16G\LL	.	.	(4g\	me-	16b\LL	-ne
16A\	.	.	16ccn\	.	.	16A\	.	.	.	.	16cc#\JJ	.
16B\	.	.	16dd\	.	.	16B\	.	.	.	.	16dd\LL	spes
16c#\JJ	.	.	16ee\JJ	.	.	16c\JJ	.	.	.	.	16ee\JJ	.
=54	=54	=54	=54	=54	=54	=54	=54	=54	=54	=54	=54	=54
8d\L	.	.	8a/L	.	1ryy	8d\	me-	1ryy	8f#\)	.	8a\	me-
8D\J	.	.	8a/J	.	.	8D/	-a	.	8f#\	-a	8a\	-a
8r	.	.	4r	.	.	8r	.	.	4r	.	4r	.
8D\	.	.	.	.	.	8D/	al-	.	.	.	.	.
!	!	!	!	!	!	!LO:LB:g=original	!	!	!	!	!	!
8d\L	.	.	4r	.	.	8d\	-tiſ-	.	4r	.	4r	.
16cn\L	.	.	.	.	.	16cn\	-si-	.	.	.	.	.
16B\JJ	.	.	.	.	.	16B\	-mum	.	.	.	.	.
8A\L	6	.	8r	.	.	8A\	po-	.	8r	.	8r	.
8B\J	6	.	8dd\	.	.	8B\	-su-	.	8d\	al-	8d/	al-
=55	=55	=55	=55	=55	=55	=55	=55	=55	=55	=55	=55	=55
4.F#\	6	.	8ddd\L	.	1ryy	4F#\	-is-	1ryy	8dd\	-tiſ-	8dd\	-tiſ-
.	.	.	16cccn\L	.	.	.	.	.	16cc#\	-si-	16cc#\	-si-
.	.	.	16bb\JJ	.	.	.	.	.	16b\	-mum	16b\	-mum
.	.	.	8aa\L	.	.	8F#\	-ti	.	8a\	po-	8a\	po-
8G\	.	.	8bb\J	.	.	8G\	re-	.	8b\	-su-	8b\	-su-
!	!	!	!	!	!	!	!	!	!LO:LB:g=original	!	!	!
8D\L	.	.	8ff#\L	.	.	8D\L	-fu-	.	8f#\L	-i-	8a\	-i-
8E\	.	.	8gg\	.	.	8E\	.	.	8g\J	.	16a\	-sti
.	.	.	.	.	.	.	.	.	.	.	16a\	re-
8F#\	.	.	8aa\	.	.	8F#\	.	.	8a\	-sti	[4dd\	-fu-
8D\J	.	.	8ff#\J	.	.	8D\J	.	.	8f#\	re-	.	.
!	!	!	!LO:LB:g=original	!	!	!	!	!	!	!	!LO:LB:g=original	!
=56	=56	=56	=56	=56	=56	=56	=56	=56	=56	=56	=56	=56
!	!	!	!	!	!	!	!	!	!	!	!LO:TX:a:t=P:problem=brak zakończenia ligatury	!
8G\L	.	.	8dd\L	.	1ryy	8G\	.	1ryy	8b\	-fu-	8dd\]	.
8F#\J	6	.	8dd\	.	.	16F#\	-gi-	.	16a\	-gi-	16dd\	-gi-
.	.	.	.	.	.	16F#\	-um	.	16a\	-um	16dd\	-um
4E\	7	.	8dd\	.	.	4E\	tu-	.	4g\	tu-	8dd\L	tu-
.	6\	.	8cc#X\J	.	.	.	.	.	.	.	8cc#\J	.
!LO:LB:g=original	!	!	!	!	!	!	!	!	!	!	!	!
4D\	.	.	4dd\	.	.	4D\	-um	.	4f#\	-um:	4dd\	-um
!	!	!	!	!	!	!LO:TX:b:t=P:problem=tekst niewidoczny	!	!	!	!	!	!
8d\L	.	.	8ff#\L	.	.	8d\	.	.	8a\	Non	8dd\	non
8d\J	.	.	8ff#\J	.	.	8d\	.	.	8a\	ac-	8dd\	ac-
=57	=57	=57	=57	=57	=57	=57	=57	=57	=57	=57	=57	=57
8d\L	.	.	8ff#\L	.	1ryy	8d\	ce-	1ryy	8a\	-ce-	8dd\	-ce-
8D\J	.	.	8ff#\J	.	.	8D\	-det	.	8a\	-det	8dd\	-det
8A\L	6 n	.	8ff#\L	.	.	8A\	ad	.	8f#\	ad	8ccn\	ad
16G\L	.	.	16gg\L	.	.	16G\LL	te	.	16g\LL	te	16b\LL	te
16F#\JJ	.	.	16gg\JJ	.	.	16F#\JJ	.	.	16a\JJ	.	16a\JJ	.
!LO:TX:t=P:problem=mixed beam	!	!	!	!	!	!	!	!	!	!	!	!
8G\L	.	.	8gg\L	.	.	8G\	ma-	.	8g\	ma-	8b\	ma-
8GG/	.	.	8gg\	.	.	8GG/	-lum	.	8g\	-lum	8b\	-lum,
!	!	!	!	!	!	!LO:LB:g=original	!	!	!LO:SIC:v:l:s=et	!	!LO:SIC:v:l:s=et	!
8G\	.	.	8gg\	.	.	8G\	de	.	8g\	&	8b\	&
8G\J	.	.	8gg\J	.	.	8G\	fla-	.	8g\	fla-	8b\	fla-
=58	=58	=58	=58	=58	=58	=58	=58	=58	=58	=58	=58	=58
8G\L	.	.	8dd\L	.	1ryy	8G\	-gel-	1ryy	8b\	-gel-	8b\	-gel-
8F#\J	6\	.	8dd#X\	.	.	8F#\	-lum	.	8a\	-lum	8dd#X\	-lum
!	!	!	!	!	!	!	!	!	!	!	!LO:TX:b:t=P:problem=pokreślony tekst	!
16E\LL	.	.	8ee\	.	.	16E\LL	non	.	16g\LL	non	8ee\	non
16F#\	.	.	.	.	.	16F#\JJ	.	.	16a\JJ	.	.	.
16G\	.	.	8ee\J	.	.	16G\LL	ap-	.	16b\LL	ac-	8ee\	ap-
16A\JJ	.	.	.	.	.	16A\JJ	.	.	16cc#\JJ	.	.	.
8B\L	#	.	8dd#X\L	.	.	8B\	-pro-	.	8b\	-ce-	8dd#X\	-pro-
8A\	.	.	8dd#\	.	.	8A\	-pin-	.	8b\	-det	8dd#\	-pin-
8G\	6	.	8ee\	.	.	8G\	-qua-	.	8b\	ta-	8ee\	-qua-
8B\J	#	.	8dd#\J	.	.	8B\	-bit	.	8b\	-ber-	8dd#\	-bit
!	!	!	!	!	!	!	!	!	!LO:LB:g=original	!	!LO:LB:g=original	!
=59	=59	=59	=59	=59	=59	=59	=59	=59	=59	=59	=59	=59
8cn\L	7	.	8ee\L	.	1ryy	8cn\L	ta-	1ryy	4b\	-na-	8ee\L	ta-
8A\	.	.	8dd#X\	.	.	8B\	.	.	.	.	8dd#X\	.
8c\	6	.	8ee\	.	.	8c\J	.	.	8a\L	.	8ee\J	.
8A\J	.	.	8ff#\J	.	.	8A\	-ber-	.	8g\J	.	8ff#\	-ber-
8B\L	#	.	8dd#\L	.	.	8B\L	-na-	.	4f#\	.	4dd#X\	-na-
8A\	.	.	8b\	.	.	8A\J	.	.	.	.	.	.
8G\	6	.	8ee\	.	.	8G\	-cu-	.	8g\	-cu-	8ee\	-cu-
8E\J	.	.	8ee\J	.	.	8E\	-lo	.	8g\	-lo	8ee\	-lo
!	!	!	!LO:LB:g=original	!	!	!	!	!	!	!	!	!
=60	=60	=60	=60	=60	=60	=60	=60	=60	=60	=60	=60	=60
2BB/	4	.	4ee\	.	1ryy	2BB/	tu-	1ryy	4g\	tu-	4ee\	tu-
.	#	.	4dd#X\	.	.	.	.	.	4f#t\	.	4dd#X\	.
8E\L	.	.	16ee\LL	.	.	4E\	-o.	.	4e\	-o	4ee\	-o
.	.	.	16gg\	.	.	.	.	.	.	.	.	.
8E\	.	.	16ff#\	.	.	.	.	.	.	.	.	.
.	.	.	16ee\JJ	.	.	.	.	.	.	.	.	.
8G\	.	.	8bb\L	.	.	4r	.	.	4r	.	4r	.
8E\J	.	.	8ee\J	.	.	.	.	.	.	.	.	.
=61	=61	=61	=61	=61	=61	=61	=61	=61	=61	=61	=61	=61
8B\L	#	.	16dd#X\LL	.	1ryy	00r	.	1ryy	00r	.	00r	.
.	.	.	16cc#\J	.	.	.	.	.	.	.	.	.
8B\	.	.	8b\J	.	.	.	.	.	.	.	.	.
8e\	.	.	16r	.	.	.	.	.	.	.	.	.
.	.	.	16gg\LL	.	.	.	.	.	.	.	.	.
8E\J	.	.	16ff#\	.	.	.	.	.	.	.	.	.
.	.	.	16ee\JJ	.	.	.	.	.	.	.	.	.
!	!	!	!LO:TX:t=P:problem=mixed beam	!	!	!	!	!	!	!	!	!
8B\L	.	.	8dd#X\L	.	.	.	.	.	.	.	.	.
8cn\J	.	.	8ee\	.	.	.	.	.	.	.	.	.
!LO:LB:g=original	!	!	!	!	!	!	!	!	!	!	!	!
8A\L	6	.	8f#/	.	.	.	.	.	.	.	.	.
8B\J	#	.	8dd#\J	.	.	.	.	.	.	.	.	.
=62	=62	=62	=62	=62	=62	=62	=62	=62	=62	=62	=62	=62
!	!	!LO:DY:t=p.	!LO:TX:t=P:problem=mixed beam	!	!	!	!	!	!	!	!	!
8E\L	.	p	8ee\L	.	1ryy	.	.	1ryy	.	.	.	.
8E\	.	.	8e/	.	.	.	.	.	.	.	.	.
!	!	!	!	!LO:DY:t=p.	!	!	!	!	!	!	!	!
8E\	.	.	8g/	p	.	.	.	.	.	.	.	.
8A\J	n	.	8a/J	.	.	.	.	.	.	.	.	.
8D#X\L	6	.	8a/L	.	.	.	.	.	.	.	.	.
8D#\	.	.	8a/	.	.	.	.	.	.	.	.	.
8E\	.	.	8a/	.	.	.	.	.	.	.	.	.
8E\J	.	.	8g/J	.	.	.	.	.	.	.	.	.
=63	=63	=63	=63	=63	=63	=63	=63	=63	=63	=63	=63	=63
8E\L	.	.	8g/L	.	1ryy	.	.	1ryy	.	.	.	.
8E\	.	.	8g/	.	.	.	.	.	.	.	.	.
8F#\	6\	.	8f#/	.	.	.	.	.	.	.	.	.
8E\J	.	.	8f#/J	.	.	.	.	.	.	.	.	.
8D#X/L	6 5	.	8f#/L	.	.	.	.	.	.	.	.	.
8D#/	.	.	8f#/	.	.	.	.	.	.	.	.	.
8BB/	#	.	8d#X/	.	.	.	.	.	.	.	.	.
8BB/J	.	.	8d#/J	.	.	.	.	.	.	.	.	.
!	!	!	!LO:LB:g=original	!	!	!	!	!	!	!	!	!
=64	=64	=64	=64	=64	=64	=64	=64	=64	=64	=64	=64	=64
8E\L	.	.	8e/L	.	1ryy	.	.	1ryy	.	.	.	.
8E\	.	.	8e/	.	.	.	.	.	.	.	.	.
8E\	.	.	8g/	.	.	.	.	.	.	.	.	.
8E\J	.	.	8cc#X/J	.	.	.	.	.	.	.	.	.
8F#\L	#_	.	8a#X/L	.	.	.	.	.	.	.	.	.
8F#\	.	.	8a#/	.	.	.	.	.	.	.	.	.
8E\	.	.	8a#/	.	.	.	.	.	.	.	.	.
8E\J	.	.	8a#/J	.	.	.	.	.	.	.	.	.
.	X	.	.	.	.	.	.	.	.	.	.	.
=65	=65	=65	=65	=65	=65	=65	=65	=65	=65	=65	=65	=65
8D/L	6	.	8f#/L	.	1ryy	00r	.	1ryy	0r	.	0r	.
8D/	.	.	8f#/	.	.	.	.	.	.	.	.	.
8AA#X/	6	.	8f#/	.	.	.	.	.	.	.	.	.
8AA#/J	.	.	8f#/J	.	.	.	.	.	.	.	.	.
8BB/L	.	.	8f#/L	.	.	.	.	.	.	.	.	.
8C#/	.	.	8a#X/	.	.	.	.	.	.	.	.	.
8D/	.	.	8b/	.	.	.	.	.	.	.	.	.
8E/J	.	.	8cc#/J	.	.	.	.	.	.	.	.	.
=66	=66	=66	=66	=66	=66	=66	=66	=66	=66	=66	=66	=66
!LO:TX:t=P:problem=mixed beam	!	!	!	!	!	!	!	!	!	!	!	!
8F#\L	4	.	4b/	.	1ryy	.	.	1ryy	.	.	.	.
8F#\	.	.	.	.	.	.	.	.	.	.	.	.
8FF#/	#	.	4a#X/	.	.	.	.	.	.	.	.	.
8FF#/J	.	.	.	.	.	.	.	.	.	.	.	.
8BB/L	.	.	16b\LL	f	.	.	.	.	.	.	.	.
.	.	.	16dd\	.	.	.	.	.	.	.	.	.
8BB/J	.	.	16cc#\	.	.	.	.	.	.	.	.	.
.	.	.	16b\JJ	.	.	.	.	.	.	.	.	.
!LO:LB:g=original	!	!	!	!	!	!	!	!	!	!	!	!
8D/L	6	.	8ff#\L	.	.	.	.	.	.	.	.	.
8BB/J	.	.	8bb\J	.	.	.	.	.	.	.	.	.
=67	=67	=67	=67	=67	=67	=67	=67	=67	=67	=67	=67	=67
!LO:TX:t=P:problem=mixed beam	!	!	!	!	!	!	!	!	!	!	!	!
8F#\L	#	.	16aa#X\LL	.	1ryy	.	.	1ryy	1r	.	1r	.
.	.	.	16gg\J	.	.	.	.	.	.	.	.	.
8F#\	.	.	8ff#\J	.	.	.	.	.	.	.	.	.
8B\	.	.	16r	.	.	.	.	.	.	.	.	.
.	.	.	16dd\LL	.	.	.	.	.	.	.	.	.
8BB/J	.	.	16cc#\	.	.	.	.	.	.	.	.	.
.	.	.	16b\JJ	.	.	.	.	.	.	.	.	.
8F#\L	#	.	8a#X/L	.	.	.	.	.	.	.	.	.
8G\	.	.	8b/	.	.	.	.	.	.	.	.	.
8E\	6	.	8c#/	.	.	.	.	.	.	.	.	.
8F#\J	#	.	8a#/J	.	.	.	.	.	.	.	.	.
!	!	!	!LO:LB:g=original	!	!	!	!	!	!	!	!	!
=68	=68	=68	=68	=68	=68	=68	=68	=68	=68	=68	=68	=68
4BB/	.	.	8b/L	.	1ryy	.	.	1ryy	4r	.	4r	.
.	.	.	8B/J	.	.	.	.	.	.	.	.	.
*clefC4	*	*	*	*	*	*	*	*	*	*	*	*
*k[f#c#]	*	*	*	*	*	*	*	*	*	*	*	*
*2\right	*	*	*	*	*	*	*	*	*	*	*	*
2B\	x 3	.	4r	.	.	.	.	.	4f#\	In	4dd\	In
.	4 2	.	2r	.	.	.	.	.	8e\	ma-	8cc#\	ma-
.	.	.	.	.	.	.	.	.	8e\	-ni-	8cc#\	-ni-
4A#X\	.	.	.	.	.	.	.	.	8f#\	-bus	8cc#\	-bus
.	.	.	.	.	.	.	.	.	8f#\	por-	8cc#\	por-
=69	=69	=69	=69	=69	=69	=69	=69	=69	=69	=69	=69	=69
8B\L	.	.	00r	.	1ryy	00r	.	1ryy	2.f#\	-ta-	4.dd\	-ta-
8F#\	.	.	.	.	.	.	.	.	.	.	.	.
8B\	.	.	.	.	.	.	.	.	.	.	.	.
8An\J	6	.	.	.	.	.	.	.	.	.	8cc#\	.
2Gn/	7	.	.	.	.	.	.	.	.	.	4.b\	.
.	6	.	.	.	.	.	.	.	4e\	-bunt	.	.
.	.	.	.	.	.	.	.	.	.	.	8b\	-bunt
=70	=70	=70	=70	=70	=70	=70	=70	=70	=70	=70	=70	=70
8F#/L	#	.	.	.	1ryy	.	.	1ryy	8f#\	te,	8a#X\	te,
8F#/	.	.	.	.	.	.	.	.	8f#\	nè	8a#\	nè
8G#X/	6	.	.	.	.	.	.	.	8e\L	for-	8b\L	for-
8A#X/J	.	.	.	.	.	.	.	.	8f#\J	.	8cc#\J	.
!	!	!	!	!	!	!	!	!	!	!	!LO:LB:g=original	!
4B\	.	.	.	.	.	.	.	.	8f#\	-tè	4dd\	.
.	.	.	.	.	.	.	.	.	8f#\	of-	.	.
8E/L	7	.	.	.	.	.	.	.	8g\L	-fen-	8dd\	-tè
8A#/J	.	.	.	.	.	.	.	.	8e\J	.	8cc#\	of-
!	!	!	!	!	!	!	!	!	!LO:LB:g=original	!	!	!
=71	=71	=71	=71	=71	=71	=71	=71	=71	=71	=71	=71	=71
4D/	.	.	.	.	1ryy	.	.	1ryy	8f#\	-das	8dd\	-fen-
.	.	.	.	.	.	.	.	.	8f#\	ad	8dd\	-das
2d\	x 3	.	.	.	.	.	.	.	4a\	la-	4ff#\	ad
.	4 2	.	.	.	.	.	.	.	[4g\	.	[4ee\	la-
[4c#\	x 5	.	.	.	.	.	.	.	16g\LL]	.	16ee\LL]	.
.	.	.	.	.	.	.	.	.	16e\	.	16cc#\	.
.	.	.	.	.	.	.	.	.	16f#\	.	16dd\	.
.	.	.	.	.	.	.	.	.	16g\JJ	.	16ee\JJ	.
=72	=72	=72	=72	=72	=72	=72	=72	=72	=72	=72	=72	=72
4c#\]	4 2	.	.	.	1ryy	.	.	1ryy	[4f#\	.	[4dd\	.
2B\	x 3	.	.	.	.	.	.	.	16f#\LL]	.	16dd\LL]	.
.	.	.	.	.	.	.	.	.	16d\	.	16b\	.
.	4 2	.	.	.	.	.	.	.	16e\	.	16cc#\	.
.	.	.	.	.	.	.	.	.	16f#\JJ	.	16dd\JJ	.
.	.	.	.	.	.	.	.	.	4e\	.	4cc#\	.
8A/L	.	.	.	.	.	.	.	.	8e\	-pi-	8cc#\	-pi-
8G/J	.	.	.	.	.	.	.	.	8e\	-dem	8cc#\	-dem
!LO:LB:g=original	!	!	!	!	!	!	!	!	!	!	!	!
=73	=73	=73	=73	=73	=73	=73	=73	=73	=73	=73	=73	=73
4A\	.	.	1r	.	1ryy	1r	.	1ryy	4e\	pe-	4cc#\	pe-
4c#\	.	.	.	.	.	.	.	.	4f#\	-dem	4dd\	-dem
2A\	4	.	.	.	.	.	.	.	2e\	tu-	(4dd\	tu-
.	3	.	.	.	.	.	.	.	.	.	4cc#\)	.
*clefF4	*	*	*	*	*	*	*	*	*	*	*	*
*k[f#c#]	*	*	*	*	*	*	*	*	*	*	*	*
!	!	!	!	!	!	!LO:LB:g=original	!	!	!	!	!	!
=74	=74	=74	=74	=74	=74	=74	=74	=74	=74	=74	=74	=74
8D\L	.	.	8a/L	.	1ryy	4D\	ſu-	1ryy	4f#\	-um	4dd\	-um.
!	!	!LO:DY:t=p.	!	!	!	!	!	!	!	!	!	!
8D\	.	p	8a/J	.	.	.	.	.	.	.	.	.
8F#\	6	.	8dd\L	.	.	4d\	-per	.	4r	.	4r	.
8F#\J	.	.	8dd\J	.	.	.	.	.	.	.	.	.
!	!	!	!LO:TX:t=P:problem=mixed beam	!	!	!	!	!	!	!	!	!
8A\L	.	.	8ee\L	.	.	8c#\	a-	.	2r	.	2r	.
8A\	.	.	8a/	.	.	8B\	-spi-	.	.	.	.	.
8F#\	6	.	8a/	.	.	8A\	-dem	.	.	.	.	.
8G\J	.	.	8g/J	.	.	8B\	de	.	.	.	.	.
=75	=75	=75	=75	=75	=75	=75	=75	=75	=75	=75	=75	=75
8C#/L	7	.	8g/L	.	1ryy	8B\	ba-	1ryy	00r	.	00r	.
8C#/	6	.	8a/	.	.	4A\	.	.	.	.	.	.
8C#/	.	.	8a/	.	.	.	.	.	.	.	.	.
8C#/J	5	.	8a/J	.	.	8G\	-si-	.	.	.	.	.
8D\L	.	.	8a/L	.	.	16F#\LL	-li-	.	.	.	.	.
.	.	.	.	.	.	16E\JJ	.	.	.	.	.	.
8D\	.	.	8f#/	.	.	8D\	-cum	.	.	.	.	.
8D\	.	.	8f#/	.	.	8r	.	.	.	.	.	.
8F#\J	.	.	8a/J	.	.	8F#\	am-	.	.	.	.	.
=76	=76	=76	=76	=76	=76	=76	=76	=76	=76	=76	=76	=76
8G\L	.	.	8g/L	.	1ryy	8G\L	.	1ryy	.	.	.	.
8A\	.	.	8g/	.	.	8A\	.	.	.	.	.	.
8B\	.	.	8f#/	.	.	8B\J	.	.	.	.	.	.
8c#\J	.	.	8a/J	.	.	8c#\	-bu-	.	.	.	.	.
8d\L	.	.	8a/L	.	.	8d\L	-la-	.	.	.	.	.
8c#\J	6	.	8a/	.	.	8c#\J	.	.	.	.	.	.
4B\	7	.	8a/	.	.	4B	.	.	.	.	.	.
.	6\	.	8g#X/J	.	.	.	.	.	.	.	.	.
=77	=77	=77	=77	=77	=77	=77	=77	=77	=77	=77	=77	=77
8A\L	.	.	8a/L	.	1ryy	4A\	-bis	1ryy	.	.	.	.
8A\	.	.	8a/	.	.	.	.	.	.	.	.	.
8A\	.	.	8a/	.	.	8r	.	.	.	.	.	.
!	!	!	!	!	!	!LO:SIC:v:l:s=et	!	!	!	!	!	!
8C#\J	.	.	8a/J	.	.	8A\	&	.	.	.	.	.
!	!	!	!LO:PB:g=original	!	!	!	!	!	!	!	!	!
8D\L	.	.	8b\L	.	.	8F#\L	con-	.	.	.	.	.
8D\	.	.	8dd\	.	.	8A\J	.	.	.	.	.	.
8E\	#	.	8b\	.	.	8G#X\L	-cul-	.	.	.	.	.
8E\J	.	.	8ee\J	.	.	8B\J	.	.	.	.	.	.
!LO:LB:g=original	!	!	!	!	!	!	!	!	!	!	!	!
=78	=78	=78	=78	=78	=78	=78	=78	=78	=78	=78	=78	=78
8F#\L	6	.	8dd\L	.	1ryy	8A\L	-ca-	1ryy	.	.	.	.
8F#\	.	.	8dd\	.	.	8c#\J	.	.	.	.	.	.
!	!	!	!	!	!	!LO:LB:g=original	!	!	!	!	!	!
8G#X\	6	.	8ee\	.	.	8B\	-bis	.	.	.	.	.
8G#\J	.	.	8ee\J	.	.	8d\	le-	.	.	.	.	.
8A\L	.	.	8ee\L	.	.	8c#\	-o-	.	.	.	.	.
8E\	#	.	8dd\	.	.	8G#X\	-nem	.	.	.	.	.
!	!	!	!	!	!	!LO:SIC:v:l:s=et	!	!	!	!	!	!
8F#\	.	.	8cc#\	.	.	8A\	&	.	.	.	.	.
8D\J	6	.	8dd\J	.	.	8D\	dra-	.	.	.	.	.
=79	=79	=79	=79	=79	=79	=79	=79	=79	=79	=79	=79	=79
*	*	*	*	*	*	*2\right	*	*	*	*	*	*
4E\	4	.	4cc#\	.	1ryy	2E\	-co-	1ryy	0r	.	0r	.
4EE/	#	.	4b\	.	.	.	.	.	.	.	.	.
8AA/L	.	.	16a\LL	.	.	4AA/	-nem	.	.	.	.	.
.	.	.	16cc#\	.	.	.	.	.	.	.	.	.
8AA/	.	.	16b\	.	.	.	.	.	.	.	.	.
.	.	.	16a\JJ	.	.	.	.	.	.	.	.	.
8C#/	.	.	8ee\L	.	.	4r	.	.	.	.	.	.
8AA/J	.	.	8aa\J	.	.	.	.	.	.	.	.	.
=80	=80	=80	=80	=80	=80	=80	=80	=80	=80	=80	=80	=80
!LO:TX:t=P:problem=mixed beam	!	!	!	!	!	!	!	!	!	!	!	!
8E\L	#	.	16gg#X\LL	.	1ryy	1r	.	1ryy	.	.	.	.
.	.	.	16ff#\J	.	.	.	.	.	.	.	.	.
!	!	!	!LO:TX:a:t=P:problem=skreślona belka	!	!	!	!	!	!	!	!	!
8E\	.	.	8ee\J	.	.	.	.	.	.	.	.	.
8A\	.	.	16r	.	.	.	.	.	.	.	.	.
.	.	.	16cc#\LL	.	.	.	.	.	.	.	.	.
8AA/J	.	.	16b\	.	.	.	.	.	.	.	.	.
.	.	.	16a\JJ	.	.	.	.	.	.	.	.	.
8E\L	#	.	8g#X/L	.	.	.	.	.	.	.	.	.
8F#\	.	.	8a/	.	.	.	.	.	.	.	.	.
8D\	6	.	8B/	.	.	.	.	.	.	.	.	.
8E\J	#	.	8g#/J	.	.	.	.	.	.	.	.	.
=81	=81	=81	=81	=81	=81	=81	=81	=81	=81	=81	=81	=81
8A\L	.	.	8a/L	.	1ryy	8.A\	Quo-	1ryy	8.a\	Quo-	8.cc#\	Quo-
!LO:TX:a:t=T	!	!	!	!	!	!	!	!	!	!	!	!
8E\	.	.	8cc#/J	.	.	.	.	.	.	.	.	.
.	.	.	.	.	.	16A\	-ni-	.	16a\	-ni-	16cc#\	-ni-
!	!	!	!	!	!	!	!	!	!	!	!LO:LB:g=original	!
8B\	6\	.	8dd\L	.	.	8B\	-am	.	8g#X\	-am	8dd\	-am
8E\J	.	.	8dd\J	.	.	8B\	in	.	8g#\	in	8dd\	in
!	!	!	!	!	!	!LO:TX:b:t=P:problem=urwana kartka, tekst nieczytelny	!	!	!	!	!	!
8c#\L	6	.	8ee\L	.	.	8c#\	m	.	8a\	me	8ee\	me
8A\J	.	.	16dd\L	.	.	8A\	.	.	8a\	spe-	8cc#\	spe-
.	.	.	16cc#\JJ	.	.	.	.	.	.	.	.	.
!	!	!	!	!	!	!	!	!	!	!	!LO:TX:a:t=P:problem=po nucie skreślony łuk	!
8D\L	.	.	8dd\L	.	.	[<4d\	.	.	4a\	-ra-	4ff#\	-ra-
[<8d\J	.	.	8dd\J	.	.	.	.	.	.	.	.	.
!	!	!	!LO:LB:g=original	!	!	!	!	!	!LO:LB:g=original	!	!	!
=82	=82	=82	=82	=82	=82	=82	=82	=82	=82	=82	=82	=82
!	!	!	!	!	!	!	!	!	!LO:TX:b:t=P:problem=skreślona sylaba	!	!	!
8d\L]	.	.	8b\L	.	1ryy	8d\L]	.	1ryy	8g#X\	.	8ee\L	.
8c#\J	.	.	8cc#\J	.	.	8c#\J	.	.	4a\	.	16dd\L	.
.	.	.	.	.	.	.	.	.	.	.	16cc#\JJ	.
4B\	7	.	4dd\	.	.	4B\	.	.	.	.	4dd\	.
.	6\	.	.	.	.	.	.	.	8g#\	.	.	.
8A\L	.	.	8cc#\L	.	.	8A\	vit	.	8a\	-vit	8cc#\	-vit
8F#\	.	.	8cc#\	.	.	8F#\L	li-	.	8a\L	Li-	4cc#\	li-
8E#X\	6	.	8cc#\	.	.	8E#X\J	.	.	8g#X\J	.	.	.
8F#\J	.	.	8cc#\J	.	.	8F#\	-be-	.	8a\	-be-	8cc#\	-be-
!	!	!	!	!	!	!LO:LB:g=original	!	!	!	!	!	!
=83	=83	=83	=83	=83	=83	=83	=83	=83	=83	=83	=83	=83
8A\L	6	.	8cc#\L	.	1ryy	8A\	-ra-	1ryy	8a\	-ra-	8cc#\	-ra-
8F#\J	.	.	8cc#\	.	.	8F#\	-bo	.	8a\	-bo	8cc#\	-bo
4D\	7	.	8cc#\	.	.	4D/	e-	.	8a\L	e-	8cc#\L	e-
.	.	.	8b\J	.	.	.	.	.	16g#X\L	.	8b\J	.
.	6	.	.	.	.	.	.	.	16f#\JJ	.	.	.
!LO:LB:g=original	!	!	!	!	!	!	!	!	!	!	!	!
8C#X/L	#	.	8cc#\L	.	.	4C#/	-um	.	4g#\	-um	4cc#\	-um
8C#/	.	.	16gg#X\L	.	.	.	.	.	.	.	.	.
.	.	.	16ee#X\JJ	.	.	.	.	.	.	.	.	.
8C#/	.	.	8cc#\L	.	.	8r	.	.	8r	.	8r	.
8C#/J	.	.	8cc#\J	.	.	8C#/	pro-	.	8g#\	pro-	[8cc#\	pro-
=84	=84	=84	=84	=84	=84	=84	=84	=84	=84	=84	=84	=84
4D#X\	7	.	8cc#\L	.	1ryy	4D#X\	.	1ryy	4f#\	.	8cc#\]	.
.	6	.	8b\	.	.	.	.	.	.	.	4b\	.
4E#X\	5	.	8b\	.	.	8E#X\	-te-	.	8g#X\	-te-	.	.
.	.	.	8dd\J	.	.	8E#\	-gam	.	8g#\	-gam	16a\	-te-
.	.	.	.	.	.	.	.	.	.	.	16g#X\	-gam
8F#\L	.	.	8cc#\L	.	.	8F#\	e-	.	8f#\	e-	8a\	e-
8F#\J	.	.	8cc#\J	.	.	8F#\	-um	.	8f#\	-um	8a\	-um
8r	.	.	8r	.	.	8r	.	.	8r	.	8r	.
16F#\LL	.	.	16ff#\LL	.	.	16F#\	quo-	.	16a\	quo-	16a\	quo-
16G#X\JJ	.	.	16ee#X\JJ	.	.	16G#X\	-ni-	.	16g#X\	-ni-	16b\	-ni-
!	!	!	!	!	!	!	!	!	!	!	!LO:LB:g=original	!
=85	=85	=85	=85	=85	=85	=85	=85	=85	=85	=85	=85	=85
8A\L	6	.	8ff#\L	.	1ryy	8A\	-am	1ryy	8f#\	-am	8cc#\	-am
8F#\	.	.	8cc#\	.	.	8F#\	co-	.	8a\	co-	8a\	co-
!	!	!	!	!	!	!LO:TX:a:t=P:problem=nuty niewidoczne, uzupełnione na podstawia b.c.	!	!	!	!	!	!
8B\	.	.	8ff#\	.	.	8B\yy	-gno-	.	8f#\	-gno-	8dd\	-gno-
8d\J	.	.	8ff#\J	.	.	8d\yy	-vit	.	8f#\	-vit	8b\	-vit
8c#\L	#	.	8ee#X\L	.	.	8c#\yy	.	.	4g#X\	no-	8g#X\L	no-
8E#X\J	6	.	8cc#\	.	.	8E#X\yy	no-	.	.	.	8b\J	.
!LO:TX:t=P:problem=mixed beam	!	!	!	!	!	!	!	!	!LO:PB:g=original	!	!	!
8F#\L	.	.	8ff#\	.	.	8F#\	.	.	8f#\	.	8a\	.
8BB/J	.	.	8ff#\J	.	.	8BB/	-men	.	8g#\	-men	8b\	-men
=86	=86	=86	=86	=86	=86	=86	=86	=86	=86	=86	=86	=86
2C#/	4	.	4ff#\	.	1ryy	2C#/	me-	1ryy	4f#\	me-	4a\	me-
.	#	.	4ee#X\	.	.	.	.	.	4e#X\	.	4g#X\	.
8F#\L	.	.	8ff#\L	.	.	4F#\	-um	.	4f#\	-um	4f#/	-um.
8F#\	.	.	16a\L	.	.	.	.	.	.	.	.	.
.	.	.	16b\JJ	.	.	.	.	.	.	.	.	.
8A\	.	.	8cc#\L	.	.	4r	.	.	4r	.	4r	.
8F#\J	.	.	8ff#\J	.	.	.	.	.	.	.	.	.
!	!	!	!LO:LB:g=original	!	!	!LO:LB:g=original	!	!	!	!	!	!
=87	=87	=87	=87	=87	=87	=87	=87	=87	=87	=87	=87	=87
8C#/L	#	.	16ee#X\LL	.	1ryy	00r	.	1ryy	00r	.	00r	.
.	.	.	16dd\J	.	.	.	.	.	.	.	.	.
8C#/J	.	.	8cc#\J	.	.	.	.	.	.	.	.	.
8F#\L	.	.	16r	.	.	.	.	.	.	.	.	.
.	.	.	16aa\LL	.	.	.	.	.	.	.	.	.
8F#\J	.	.	16gg#X\	.	.	.	.	.	.	.	.	.
.	.	.	16ff#\JJ	.	.	.	.	.	.	.	.	.
!	!	!	!LO:TX:t=P:problem=mixed beam	!	!	!	!	!	!	!	!	!
8C#/L	#	.	8ee#\L	.	.	.	.	.	.	.	.	.
8D/	.	.	8ff#\	.	.	.	.	.	.	.	.	.
8BB/	6\	.	8g#X/	.	.	.	.	.	.	.	.	.
8C#/J	#	.	8ee#\J	.	.	.	.	.	.	.	.	.
=88	=88	=88	=88	=88	=88	=88	=88	=88	=88	=88	=88	=88
!	!	!	!LO:TX:t=P:problem=mixed beam	!	!	!	!	!	!	!	!	!
8F#\L	.	.	8ff#\L	.	1ryy	.	.	1ryy	.	.	.	.
!	!	!LO:DY:t=p.	!	!	!	!	!	!	!	!	!	!
8F#\	.	p	8f#/	.	.	.	.	.	.	.	.	.
8F#\	.	.	8a/	.	.	.	.	.	.	.	.	.
8F#\J	.	.	8a/J	.	.	.	.	.	.	.	.	.
8F#\L	.	.	8a/L	.	.	.	.	.	.	.	.	.
8A\J	.	.	8f#/	.	.	.	.	.	.	.	.	.
!LO:LB:g=original	!	!	!	!	!	!	!	!	!	!	!	!
8B\L	.	.	8f#/	.	.	.	.	.	.	.	.	.
8A\J	6	.	8f#/J	.	.	.	.	.	.	.	.	.
=89	=89	=89	=89	=89	=89	=89	=89	=89	=89	=89	=89	=89
8D/L	7	.	8f#/L	.	1ryy	.	.	1ryy	.	.	.	.
8D/	.	.	8f#/	.	.	.	.	.	.	.	.	.
8D/	6	.	8f#/	.	.	.	.	.	.	.	.	.
8D/J	.	.	8f#/J	.	.	.	.	.	.	.	.	.
8C#/L	#	.	8e#X/L	.	.	.	.	.	.	.	.	.
8C#/J	.	.	8e#/	.	.	.	.	.	.	.	.	.
8E#X\L	6	.	8g#X/	.	.	.	.	.	.	.	.	.
8E#\J	.	.	8g#/J	.	.	.	.	.	.	.	.	.
=90	=90	=90	=90	=90	=90	=90	=90	=90	=90	=90	=90	=90
8F#\L	.	.	8a/L	.	1ryy	.	.	1ryy	.	.	.	.
8F#\	.	.	8a/	.	.	.	.	.	.	.	.	.
8F#\	.	.	8f#/	.	.	.	.	.	.	.	.	.
8F#\J	.	.	8f#/J	.	.	.	.	.	.	.	.	.
8A#X\L	6	.	8f#/L	.	.	.	.	.	.	.	.	.
8A#\	.	.	8f#/	.	.	.	.	.	.	.	.	.
8A#\	.	.	8f#/	.	.	.	.	.	.	.	.	.
8A#\J	.	.	8f#/J	.	.	.	.	.	.	.	.	.
!	!	!	!LO:LB:g=original	!	!	!	!	!	!	!	!	!
=91	=91	=91	=91	=91	=91	=91	=91	=91	=91	=91	=91	=91
!LO:TX:t=P:problem=mixed beam	!	!	!	!	!	!	!	!	!	!	!	!
8B\L	.	.	8f#/L	.	1ryy	00r	.	1ryy	00r	.	00r	.
8B\	.	.	8f#/	.	.	.	.	.	.	.	.	.
8BB/	.	.	8f#/	.	.	.	.	.	.	.	.	.
8D/J	.	.	8b/J	.	.	.	.	.	.	.	.	.
8E\L	#	.	8g#X/L	.	.	.	.	.	.	.	.	.
8E\	.	.	8g#/	.	.	.	.	.	.	.	.	.
8G#X\	6	.	8e/	.	.	.	.	.	.	.	.	.
8G#\J	.	.	8e/J	.	.	.	.	.	.	.	.	.
=92	=92	=92	=92	=92	=92	=92	=92	=92	=92	=92	=92	=92
8G\L	.	.	8e/L	.	1ryy	.	.	1ryy	.	.	.	.
8G\	.	.	8e/	.	.	.	.	.	.	.	.	.
8G\	.	.	8e/	.	.	.	.	.	.	.	.	.
8G\J	.	.	8e/J	.	.	.	.	.	.	.	.	.
8A\L	.	.	8e/L	.	.	.	.	.	.	.	.	.
8A\	.	.	8e/	.	.	.	.	.	.	.	.	.
8A\	.	.	8e/	.	.	.	.	.	.	.	.	.
8A\J	.	.	8e/J	.	.	.	.	.	.	.	.	.
=93	=93	=93	=93	=93	=93	=93	=93	=93	=93	=93	=93	=93
8D/L	6	.	8f#/L	.	1ryy	.	.	1ryy	.	.	.	.
8D/	.	.	8f#/	.	.	.	.	.	.	.	.	.
8D/	.	.	8e/	.	.	.	.	.	.	.	.	.
8D/J	.	.	8e/J	.	.	.	.	.	.	.	.	.
!LO:LB:g=original	!	!	!	!	!	!	!	!	!	!	!	!
8C#/L	6	.	8e/L	.	.	.	.	.	.	.	.	.
8C#/J	.	.	8e/	.	.	.	.	.	.	.	.	.
8G#X\L	6	.	8e/	.	.	.	.	.	.	.	.	.
8G#\J	.	.	8e/J	.	.	.	.	.	.	.	.	.
=94	=94	=94	=94	=94	=94	=94	=94	=94	=94	=94	=94	=94
8A\L	.	.	8e/L	.	1ryy	.	.	1ryy	.	.	.	.
8A\	.	.	8e/	.	.	.	.	.	.	.	.	.
8B\	6	.	8g#X/	.	.	.	.	.	.	.	.	.
8B\J	.	.	8g#/J	.	.	.	.	.	.	.	.	.
!LO:TX:t=P:problem=mixed beam	!	!	!	!	!	!	!	!	!	!	!	!
8c#\L	6	.	8a/L	.	.	.	.	.	.	.	.	.
8C#/	.	.	8a/	.	.	.	.	.	.	.	.	.
8D/	.	.	8a/	.	.	.	.	.	.	.	.	.
8D/J	.	.	8b/J	.	.	.	.	.	.	.	.	.
=95	=95	=95	=95	=95	=95	=95	=95	=95	=95	=95	=95	=95
!LO:TX:t=P:problem=mixed beam	!	!	!	!	!	!	!	!	!	!	!	!
8A\L	.	.	8a/L	.	1ryy	00r	.	1ryy	0r	.	00r	.
8AA/	.	.	8a/	.	.	.	.	.	.	.	.	.
8E\	4	.	8g#X/	.	.	.	.	.	.	.	.	.
8EE/J	#	.	8g#/J	.	.	.	.	.	.	.	.	.
8AA/L	.	.	16a/LL	.	.	.	.	.	.	.	.	.
.	.	.	16cc#/	.	.	.	.	.	.	.	.	.
8AA/	.	.	16b/	.	.	.	.	.	.	.	.	.
.	.	.	16a/JJ	.	.	.	.	.	.	.	.	.
!	!	!	!LO:LB:g=original	!	!	!	!	!	!	!	!	!
8C#/	.	.	8ee\L	.	.	.	.	.	.	.	.	.
8AA/J	.	.	8aa\J	.	.	.	.	.	.	.	.	.
=96	=96	=96	=96	=96	=96	=96	=96	=96	=96	=96	=96	=96
!LO:TX:t=P:problem=mixed beam	!	!	!	!	!	!	!	!	!	!	!	!
8E\L	#	.	16gg#X\LL	.	1ryy	.	.	1ryy	.	.	.	.
.	.	.	16ff#\J	.	.	.	.	.	.	.	.	.
8E\	.	.	8ee\J	.	.	.	.	.	.	.	.	.
8A\	.	.	16r	.	.	.	.	.	.	.	.	.
.	.	.	16cc#\LL	.	.	.	.	.	.	.	.	.
8AA/J	.	.	16b\	.	.	.	.	.	.	.	.	.
.	.	.	16a\JJ	.	.	.	.	.	.	.	.	.
8E\L	#	.	8g#X/L	.	.	.	.	.	.	.	.	.
8F#\	.	.	8a/	.	.	.	.	.	.	.	.	.
8D\	6	.	8B/	.	.	.	.	.	.	.	.	.
8E\J	#	.	8g#/J	.	.	.	.	.	.	.	.	.
=97	=97	=97	=97	=97	=97	=97	=97	=97	=97	=97	=97	=97
8A\L	.	.	8a/L	.	1ryy	.	.	1ryy	[4a\	Lon-	.	.
8A\	.	.	8e/	.	.	.	.	.	.	.	.	.
8A\	.	.	8e/	.	.	.	.	.	16a\LL]	.	.	.
.	.	.	.	.	.	.	.	.	16cc#\JJ	.	.	.
8A\J	.	.	8e/J	.	.	.	.	.	16b\LL	-gi-	.	.
.	.	.	.	.	.	.	.	.	16a\JJ	.	.	.
8G#X\L	6	.	8e/L	.	.	.	.	.	16b\	-tu-	.	.
.	.	.	.	.	.	.	.	.	16e\	-di-	.	.
8G#\	.	.	8e/	.	.	.	.	.	8e\	-ne	.	.
8G#\	.	.	8e/	.	.	.	.	.	8r	.	.	.
8G#\J	.	.	8e/J	.	.	.	.	.	8e\	di-	.	.
=98	=98	=98	=98	=98	=98	=98	=98	=98	=98	=98	=98	=98
8E\L	#	.	8e/L	.	1ryy	.	.	1ryy	8g#X\	-e-	.	.
8E\	.	.	8e/	.	.	.	.	.	16a\	-rum	.	.
.	.	.	.	.	.	.	.	.	16b\	re-	.	.
8G#X\	6	.	8e/	.	.	.	.	.	8e\	-ple-	.	.
8G#\J	.	.	8e/J	.	.	.	.	.	8d\	-bo	.	.
8A\L	.	.	8e/L	.	.	.	.	.	8d\	e-	.	.
8A\J	.	.	8e/	.	.	.	.	.	8c#\	-um	.	.
!LO:LB:g=original	!	!	!	!	!	!	!	!	!	!	!	!
8A\L	.	.	8a/	.	.	.	.	.	8r	.	.	.
!	!	!	!	!	!	!	!	!	!LO:SIC:v:l:s=et	!	!	!
8A\J	.	.	8a/J	.	.	.	.	.	16e\	&	.	.
.	.	.	.	.	.	.	.	.	16f#\	os-	.	.
!	!	!	!	!	!	!	!	!	!LO:LB:g=original	!	!	!
=99	=99	=99	=99	=99	=99	=99	=99	=99	=99	=99	=99	=99
8C#/L	6	.	8a/L	.	1ryy	00r	.	1ryy	8.g\L	-ten-	00r	.
8C#/	.	.	8a/	.	.	.	.	.	.	.	.	.
.	.	.	.	.	.	.	.	.	32a\LL	.	.	.
.	.	.	.	.	.	.	.	.	32b\JJJ	.	.	.
8C#/	.	.	8a/	.	.	.	.	.	8a\	.	.	.
8C#/J	.	.	8a/J	.	.	.	.	.	8g\	-dam	.	.
8D\L	.	.	8a/L	.	.	.	.	.	16f#\LL	il-	.	.
.	.	.	.	.	.	.	.	.	16e\JJ	.	.	.
8D\	.	.	8f#/J	.	.	.	.	.	8d\	-li	.	.
8G\	.	.	8b\L	.	.	.	.	.	[4b\	sa-	.	.
8G\J	.	.	8dd\J	.	.	.	.	.	.	.	.	.
=100	=100	=100	=100	=100	=100	=100	=100	=100	=100	=100	=100	=100
8E\L	.	.	8ee\L	.	1ryy	.	.	1ryy	16b\LL]	.	.	.
.	.	.	.	.	.	.	.	.	16g\JJ	.	.	.
8G\	.	.	8b\J	.	.	.	.	.	16e\LL	-lu-	.	.
.	.	.	.	.	.	.	.	.	16d\JJ	.	.	.
8A\	.	.	8e/L	.	.	.	.	.	4c#t\	-ta-	.	.
8G\J	.	.	8e/J	.	.	.	.	.	.	.	.	.
!	!	!	!LO:LB:g=original	!	!	!	!	!	!	!	!	!
8F#\L	6	.	8f#/L	.	.	.	.	.	16d\LL	.	.	.
.	.	.	.	.	.	.	.	.	16f#\	.	.	.
8C#\	6	.	8a/	.	.	.	.	.	16e\	.	.	.
.	.	.	.	.	.	.	.	.	16g\JJ	.	.	.
8D\	.	.	8a/	.	.	.	.	.	16f#\LL	.	.	.
.	.	.	.	.	.	.	.	.	16a\JJ	.	.	.
8G\J	.	.	8b/J	.	.	.	.	.	16g\LL	-re	.	.
.	.	.	.	.	.	.	.	.	16b\JJ	.	.	.
=101	=101	=101	=101	=101	=101	=101	=101	=101	=101	=101	=101	=101
!LO:TX:t=P:problem=mixed beam	!	!	!	!	!	!	!	!	!	!	!	!
8A\L	4	.	8a\L	.	1ryy	.	.	1ryy	4f#\	De-	.	.
8A\	.	.	8dd\	.	.	.	.	.	.	.	.	.
8AA/	3	.	8dd\	.	.	.	.	.	4eT\	.	.	.
8AA/J	.	.	8cc#\J	.	.	.	.	.	.	.	.	.
8D\L	.	.	16dd\LL	.	.	.	.	.	4d\	-i.	.	.
.	.	.	16ff#\	.	.	.	.	.	.	.	.	.
8D\	.	.	16ee\	.	.	.	.	.	.	.	.	.
.	.	.	16dd\JJ	.	.	.	.	.	.	.	.	.
8F#\	.	.	8aa\L	.	.	.	.	.	4r	.	.	.
8D\J	.	.	8ddd\J	.	.	.	.	.	.	.	.	.
=102	=102	=102	=102	=102	=102	=102	=102	=102	=102	=102	=102	=102
8A\L	.	.	16ccc#\LL	.	1ryy	.	.	1ryy	00r	.	.	.
.	.	.	16bb\J	.	.	.	.	.	.	.	.	.
8A\	.	.	8aa\J	.	.	.	.	.	.	.	.	.
8d\	.	.	16r	.	.	.	.	.	.	.	.	.
.	.	.	16ff#\LL	.	.	.	.	.	.	.	.	.
8D\J	.	.	16ee\	.	.	.	.	.	.	.	.	.
.	.	.	16dd\JJ	.	.	.	.	.	.	.	.	.
!	!	!	!LO:TX:t=P:problem=mixed beam	!	!	!	!	!	!	!	!	!
8A\L	.	.	8cc#\L	.	.	.	.	.	.	.	.	.
8B\	.	.	8dd\	.	.	.	.	.	.	.	.	.
8G\	6	.	8e/	.	.	.	.	.	.	.	.	.
8A\J	.	.	8cc#\J	.	.	.	.	.	.	.	.	.
=103	=103	=103	=103	=103	=103	=103	=103	=103	=103	=103	=103	=103
!	!	!	!LO:TX:t=P:problem=mixed beam	!	!	!	!	!	!	!	!	!
8D/L	.	.	8dd\L	.	1ryy	00r	.	1ryy	.	.	4.a\	Glo-
!	!	!	!	!LO:DY:t=p&colon;	!	!	!	!	!	!	!	!
8D/	.	.	8f#/	p	.	.	.	.	.	.	.	.
8D/	.	.	8f#/	.	.	.	.	.	.	.	.	.
8D/J	.	.	8f#/J	.	.	.	.	.	.	.	16a\	-ri-
.	.	.	.	.	.	.	.	.	.	.	16a\	-a
.	.	.	.	.	.	.	.	.	.	.	8qqg/	.
8D/L	.	.	8f#/L	.	.	.	.	.	.	.	4f#/	Pa-
8D/	.	.	8f#/	.	.	.	.	.	.	.	.	.
8D/	.	.	8f#/	.	.	.	.	.	.	.	16f#/LL	-tri
.	.	.	.	.	.	.	.	.	.	.	16g/JJ	.
*	*	*	*	*	*	*	*	*	*	*	*Xtuplet	*
!	!	!	!	!	!	!	!	!	!	!	!LO:SIC:v:l:s=et	!
8D/J	.	.	8f#/J	.	.	.	.	.	.	.	24a\LL	&
.	.	.	.	.	.	.	.	.	.	.	24b\	.
.	.	.	.	.	.	.	.	.	.	.	24cc#\JJ	.
!LO:PB:g=original	!	!	!	!	!	!	!	!	!	!	!	!
=104	=104	=104	=104	=104	=104	=104	=104	=104	=104	=104	=104	=104
8D\L	.	.	8f#/L	.	1ryy	.	.	1ryy	.	.	8.dd\	Fi-
8D\	.	.	8f#/	.	.	.	.	.	.	.	.	.
.	.	.	.	.	.	.	.	.	.	.	16dd\	-li-
8D\	.	.	8f#/	.	.	.	.	.	.	.	4dd\	-o
8D\J	.	.	8f#/J	.	.	.	.	.	.	.	.	.
8D\L	.	.	8f#/L	.	.	.	.	.	.	.	4r	.
8D\	.	.	8f#/	.	.	.	.	.	.	.	.	.
!	!	!	!	!	!	!	!	!	!	!	!LO:LB:g=original	!
!	!	!	!	!	!	!	!	!	!	!	!LO:SIC:v:l:s=et	!
8D\	.	.	8f#/	.	.	.	.	.	.	.	8ff#\	&
8D\J	.	.	8f#/J	.	.	.	.	.	.	.	8ccn\	Spi-
=105	=105	=105	=105	=105	=105	=105	=105	=105	=105	=105	=105	=105
8D#X\L	7	.	8f#/L	.	1ryy	.	.	1ryy	.	.	4cc#\	-ri-
8D#\	.	.	8f#/	.	.	.	.	.	.	.	.	.
8D#\	6	.	8f#/	.	.	.	.	.	.	.	8b\	-tu-
8D#\J	5	.	8f#/J	.	.	.	.	.	.	.	8a\	-i
8E\L	.	.	8g/L	.	.	.	.	.	.	.	16g/LL	Sanc-
.	.	.	.	.	.	.	.	.	.	.	16f#/JJ	.
8E\	.	.	8g/	.	.	.	.	.	.	.	8e/	-to
8E\	.	.	8g/	.	.	.	.	.	.	.	8r	.
!	!	!	!	!	!	!	!	!	!	!	!LO:SIC:v:l:s=et	!
8E\J	.	.	8g/J	.	.	.	.	.	.	.	8b\	&
!	!	!	!LO:LB:g=original	!	!	!	!	!	!	!	!	!
=106	=106	=106	=106	=106	=106	=106	=106	=106	=106	=106	=106	=106
8E\L	.	.	8g/L	.	1ryy	.	.	1ryy	00r	.	8b\	Spi-
8E\	.	.	8g/	.	.	.	.	.	.	.	8ee\	-ri-
8A\	n	.	8e/	.	.	.	.	.	.	.	8ccn\	-tu-
8G\J	6	.	8e/J	.	.	.	.	.	.	.	8b\	-i
8Cn/L	7	.	8e/L	.	.	.	.	.	.	.	(4b\	San-
8C/	.	.	8e/	.	.	.	.	.	.	.	.	.
8C/	6	.	8e/	.	.	.	.	.	.	.	4a\)	.
8C/J	.	.	8e/J	.	.	.	.	.	.	.	.	.
=107	=107	=107	=107	=107	=107	=107	=107	=107	=107	=107	=107	=107
8BB/L	#	.	4d#X/	.	1ryy	00r	.	1ryy	.	.	4b\	-cto
8BB/J	.	.	.	.	.	.	.	.	.	.	.	.
8G\L	.	.	8dn/L	.	.	.	.	.	.	.	8b\	Si-
8G\J	.	.	8d/J	.	.	.	.	.	.	.	8b\	-cut
8F#\L	6	.	8d/L	.	.	.	.	.	.	.	8a\	e-
8F#\	.	.	8d/	.	.	.	.	.	.	.	8a\	-rat
8D\	.	.	8f#/	.	.	.	.	.	.	.	8a\	in
8D\J	.	.	8f#/J	.	.	.	.	.	.	.	8a\	prin-
!LO:LB:g=original	!	!	!	!	!	!	!	!	!	!	!	!
=108	=108	=108	=108	=108	=108	=108	=108	=108	=108	=108	=108	=108
8D\L	.	.	8f#/L	.	1ryy	.	.	1ryy	.	.	8.f#/	-ci-
8D\	.	.	8f#/	.	.	.	.	.	.	.	.	.
.	.	.	.	.	.	.	.	.	.	.	16e/	-pi-
8D\	.	.	8f#/	.	.	.	.	.	.	.	8d/	-o
!	!	!	!	!	!	!	!	!	!	!	!LO:SIC:v:l:s=et	!
8F#\J	.	.	8d/J	.	.	.	.	.	.	.	8a\	&
8G\L	.	.	8d/L	.	.	.	.	.	.	.	4b\	nunc
8G\	.	.	8d/	.	.	.	.	.	.	.	.	.
!	!	!	!	!	!	!	!	!	!	!	!LO:LB:g=original	!
8E\	.	.	8g/	.	.	.	.	.	.	.	16r	.
!	!	!	!	!	!	!	!	!	!	!	!LO:SIC:v:l:s=et	!
.	.	.	.	.	.	.	.	.	.	.	16b\LL	&
8E\J	.	.	8g/J	.	.	.	.	.	.	.	16cc#\	.
.	.	.	.	.	.	.	.	.	.	.	16dd\JJ	.
=109	=109	=109	=109	=109	=109	=109	=109	=109	=109	=109	=109	=109
8A\L	.	.	8e/L	.	1ryy	.	.	1ryy	.	.	8cc#\	sem-
8A\	.	.	8e/	.	.	.	.	.	.	.	8cc#\	-per
8F#\	6	.	8d/	.	.	.	.	.	.	.	8r	.
!	!	!	!	!	!	!	!	!	!	!	!LO:SIC:v:l:s=et	!
8F#\J	.	.	8a/J	.	.	.	.	.	.	.	8a\	&
2E\	7	.	2g/	.	.	.	.	.	.	.	2g/	sem-
.	6	.	.	.	.	.	.	.	.	.	.	.
=110	=110	=110	=110	=110	=110	=110	=110	=110	=110	=110	=110	=110
4D;\	.	.	4f#;</	.	1ryy	.	.	1ryy	0r	.	4f#;</	-per
4r	.	.	4r	.	.	.	.	.	.	.	4r	.
*clefC1	*	*	*	*	*	*	*	*	*	*	*	*
*k[f#c#]	*	*	*	*	*	*	*	*	*	*	*	*
!	!	!	!LO:TX:b:Bi:t=presto	!	!	!	!	!	!	!	!LO:TX:a:Bi:t=Presto.	!
4.dd\|	.	.	4.dd\	.	.	.	.	.	.	.	4.dd\	Et
8dd\|	.	.	8dd\	.	.	.	.	.	.	.	8dd\	in
=111	=111	=111	=111	=111	=111	=111	=111	=111	=111	=111	=111	=111
8cc#\L	.	.	8cc#\L	.	1ryy	00r	.	1ryy	.	.	8cc#\	sae-
16b\L	.	.	16b\L	.	.	.	.	.	.	.	16b\	-cu-
16a\JJ	.	.	16a\JJ	.	.	.	.	.	.	.	16a\	-la
8b\L	.	.	8b\L	.	.	.	.	.	.	.	8b\	sae-
8cc#\J	.	.	8cc#\J	.	.	.	.	.	.	.	8cc#\	-cu-
!	!	!	!LO:LB:g=original	!	!	!	!	!	!	!	!	!
8dd\L	.	.	8dd\L	.	.	.	.	.	.	.	8dd\L	-lo-
8ff#\	.	.	8ff#\	.	.	.	.	.	.	.	8ff#\	.
8ee\	.	.	8ee\	.	.	.	.	.	.	.	8ee\	.
8dd\J	.	.	8dd\J	.	.	.	.	.	.	.	8dd\J	.
=112	=112	=112	=112	=112	=112	=112	=112	=112	=112-	=112	=112	=112
8cc#\L	.	.	8cc#\L	.	1ryy	.	.	1ryy	2r	.	8cc#\	.
16b\L	.	.	16b\L	.	.	.	.	.	.	.	16b\LL	-rum
16a\JJ	.	.	16a\JJ	.	.	.	.	.	.	.	16a\JJ	.
!LO:LB:g=original	!	!	!	!	!	!	!	!	!	!	!	!
4b\	.	.	4b\	.	.	.	.	.	.	.	4b\	a-
*^	*	*	*	*	*	*	*	*	*	*	*	*
4.a/	4.a\	.	.	4a/	.	.	.	.	.	4.a\	Et	4a\	-men
.	.	7	.	8aa\L	.	.	.	.	.	.	.	8r	.
8a/	8a\	.	.	8aa\J	.	.	.	.	.	8a\	in	8a\	a-
=113	=113	=113	=113	=113	=113	=113	=113	=113	=113	=113	=113	=113	=113
8dd/L	8f#\L	.	.	8dd\L	.	1ryy	.	.	1ryy	8f#\	sae-	8dd\L	.
16ee/L	16e\L	.	.	16ee\L	.	.	.	.	.	16e\	-cu-	16ee\L	.
16ff#/JJ	16d\JJ	.	.	16ff#\JJ	.	.	.	.	.	16d\	-la	16ff#\JJ	.
!	!	!	!	!	!	!	!	!	!	!	!	!LO:LB:g=original	!
8ee/L	8e\L	.	.	8ee\L	.	.	.	.	.	8e\	sae-	8ee\L	.
16dd/L	8f#\J	.	.	16dd\L	.	.	.	.	.	8f#\	-cu-	16dd\L	.
16cc#/JJ	.	.	.	16cc#\JJ	.	.	.	.	.	.	.	16cc#\JJ	.
!	!	!	!	!	!	!	!	!	!	!LO:LB:g=original	!	!	!
4b/	8g\L	.	.	4b\	.	.	.	.	.	8g\L	-lo-	4b\	.
.	8b\	.	.	.	.	.	.	.	.	8b\	.	.	.
4cc#/	8a\	.	.	4cc#\	.	.	.	.	.	8a\	.	4cc#\	.
.	8g\J	.	.	.	.	.	.	.	.	8g\J	.	.	.
=114	=114	=114	=114	=114	=114	=114	=114	=114	=114	=114	=114	=114	=114
16dd/LL	8f#\L	.	.	16dd\LL	.	1ryy	.	.	1ryy	8f#\	.	16dd\LL	.
16a/JJ	.	.	.	16a\JJ	.	.	.	.	.	.	.	16a\JJ	.
4dd/	16e\L	.	.	4dd\	.	.	.	.	.	16e\LL	-rum	8dd\	-men
.	16d\J	.	.	.	.	.	.	.	.	16d\JJ	.	.	.
.	8e\J	.	.	.	.	.	.	.	.	4e\	a-	8dd\L	a-
*v	*v	*	*	*	*	*	*	*	*	*	*	*	*
8cc#/	.	.	8cc#\	.	.	.	.	.	.	.	8cc#\J	.
*clefC4	*	*	*	*	*	*	*	*	*	*	*	*
*k[f#c#]	*	*	*	*	*	*	*	*	*	*	*	*
4.d\	.	.	8dd\L	.	.	.	.	.	4d\	-men	8dd\	-men
*	*	*	*	*	*	*	*	*	*	*	*	*ij
.	.	.	8ff#\	.	.	.	.	.	.	.	4ff#\	a-
.	.	.	8ff#\	.	.	.	.	.	8r	.	.	.
8d\	.	.	8ff#\J	.	.	.	.	.	8d\	a-	8ff#\	-men
*	*	*	*	*	*	*	*	*	*	*	*	*Xij
=115	=115	=115	=115	=115	=115	=115	=115	=115	=115	=115	=115	=115
8c#\L	6	.	8ee\L	.	1ryy	1r	.	1ryy	8a\L	.	8ee\L	a-
16B\L	.	.	16dd\L	.	.	.	.	.	16b\L	.	16dd\L	.
16A\JJ	.	.	16cc#\JJ	.	.	.	.	.	16cc#\JJ	.	16cc#\JJ	.
8B\L	6	.	8dd\L	.	.	.	.	.	8b\L	.	8dd\L	.
8c#\J	6	.	8ee\J	.	.	.	.	.	16a\L	.	8ee\J	.
.	.	.	.	.	.	.	.	.	16g\JJ	.	.	.
8d\L	.	.	8ff#\L	.	.	.	.	.	4f#\	.	8ff#\L	.
8f#\	.	.	8dd\J	.	.	.	.	.	.	.	8dd\J	.
8e\	#	.	8b\L	.	.	.	.	.	4g#X\	.	8b\L	.
8d\J	.	.	16cc#\L	.	.	.	.	.	.	.	16cc#\L	.
.	.	.	16dd\JJ	.	.	.	.	.	.	.	16dd\JJ	.
!	!	!	!LO:LB:g=original	!	!	!	!	!	!	!	!	!
=116	=116	=116	=116	=116	=116	=116-	=116	=116	=116	=116	=116	=116
8c#\L	6	.	8ee\L	.	1ryy	2r	.	1ryy	16a\LL	.	8ee\	.
.	.	.	.	.	.	.	.	.	16e\JJ	.	.	.
16B\L	.	.	16dd\L	.	.	.	.	.	4a\	.	16dd\LL	-men
16A\JJ	7	.	16cc#\JJ	.	.	.	.	.	.	.	16cc#\JJ	.
4B\	6\	.	4dd\	.	.	.	.	.	.	.	4dd\	a-
.	.	.	.	.	.	.	.	.	8g#X\	.	.	.
!LO:LB:g=original	!	!	!	!	!	!	!	!	!	!	!	!
*clefF4	*	*	*	*	*	*	*	*	*	*	*	*
*k[f#c#]	*	*	*	*	*	*	*	*	*	*	*	*
4.A\	.	.	8cc#\L	.	.	4.A\	Et	.	4a\	-men	4cc#\	-men
.	.	.	8cc#\	.	.	.	.	.	.	.	.	.
*	*	*	*	*	*	*	*	*	*	*ij	*	*
.	.	.	8cc#\	.	.	.	.	.	8a\	a-	4r	.
8A\	.	.	8cc#\J	.	.	8A\	in	.	8a\	-men	.	.
*	*	*	*	*	*	*	*	*	*	*Xij	*	*
=117	=117	=117	=117	=117	=117	=117	=117	=117	=117	=117	=117	=117
8F#\L	6	.	8dd\L	.	1ryy	8F#\	sae-	1ryy	8a\L	a-	1r	.
16E\L	.	.	8a\	.	.	16E\	-cu-	.	8f#\	.	.	.
16D\JJ	.	.	.	.	.	16D\	-la	.	.	.	.	.
8E\L	6	.	8cc#\	.	.	8E\	sae-	.	8g\	.	.	.
8F#\J	6	.	8dd\J	.	.	8F#\	-cu-	.	8a\J	.	.	.
8G\L	.	.	4dd\	.	.	8G\L	-lo-	.	8b\L	.	.	.
8B\	.	.	.	.	.	16A\L	.	.	8g\J	.	.	.
.	.	.	.	.	.	16B\JJ	.	.	.	.	.	.
8A\	.	.	4ee\	.	.	8A\L	.	.	8e\L	.	.	.
8G\J	.	.	.	.	.	8G\J	.	.	16f#\L	.	.	.
.	.	.	.	.	.	.	.	.	16g\JJ	.	.	.
=118	=118	=118	=118	=118	=118	=118	=118	=118	=118	=118	=118-	=118
8F#\L	6	.	4ff#\	.	1ryy	8F#\	-rum	1ryy	8a\	.	2r	.
16E\L	.	.	.	.	.	16E\LL	a-	.	16g\LL	-men	.	.
16D\JJ	.	.	.	.	.	16D\JJ	.	.	16f#\JJ	.	.	.
!	!	!	!	!	!	!	!	!	!LO:LB:g=original	!	!	!
4E\	7	.	4r	.	.	4E\	.	.	4g\	a-	.	.
.	6	.	.	.	.	.	.	.	.	.	.	.
!	!	!	!	!	!	!	!	!	!	!	!LO:LB:g=original	!
!	!	!	!	!	!	!	!	!	!	!	!LO:SIC:v:l:s=et	!
4D\	.	.	4.dd\	.	.	4D\	-men	.	8f#\	-men	4.dd\	&
.	.	.	.	.	.	.	.	.	8a\L	a-	.	.
8D\L	.	.	.	.	.	8r	.	.	8f#\J	.	.	.
8D\J	.	.	8dd\	.	.	8D\	a-	.	8a\	-men	8dd\	in
=119	=119	=119	=119	=119	=119	=119	=119	=119	=119	=119	=119	=119
8A\L	.	.	8cc#\L	.	1ryy	8A\L	.	1ryy	8a\L	a-	8cc#\	sae-
16B\L	.	.	16b\L	.	.	16B\L	.	.	8e\J	.	16b\	-cu-
16c#\JJ	.	.	16a\JJ	.	.	16c#\JJ	.	.	.	.	16a\	-la
8B\L	6\	.	8b\L	.	.	8B\L	.	.	8g#X\	.	8b\	sae-
16A\L	.	.	8cc#\J	.	.	16A\L	.	.	8a\	-men	8cc#\	-cu-
16G#X\JJ	.	.	.	.	.	16G#X\JJ	.	.	.	.	.	.
4F#\	6	.	8dd\L	.	.	4F#\	.	.	4a\	a-	8dd\L	-lo-
.	.	.	8ff#\	.	.	.	.	.	.	.	8ff#\J	.
!	!	!	!	!	!	!LO:LB:g=original	!	!	!	!	!	!
4G#\	6	.	8ee\	.	.	4G#\	.	.	4b\	.	8ee\L	-rum
.	.	.	8dd\J	.	.	.	.	.	.	.	8dd\J	.
=120	=120	=120	=120	=120	=120	=120	=120	=120	=120	=120	=120	=120
4.A\	.	.	8cc#\L	.	1ryy	4.A\	.	1ryy	8e\	-men	8cc#\L	a-
*	*	*	*	*	*	*	*	*	*	*ij	*	*
.	.	.	16b\L	.	.	.	.	.	4e\	a-	16b\L	.
.	.	.	16a\JJ	.	.	.	.	.	.	.	16a\JJ	.
.	.	.	8b\L	.	.	.	.	.	.	.	8b\L	.
8Gn\	6	.	8cc#\J	.	.	8Gn\	-men	.	8e\	-men	8cc#\J	.
*	*	*	*	*	*	*	*	*	*	*Xij	*	*
!LO:LB:g=original	!	!	!	!	!	!	!	!	!	!	!	!
2F#\	#	.	8a#X/	.	.	2F#\	a-	.	2f#\	a-	8a#X\	.
.	4	.	4b/	.	.	.	.	.	.	.	4b\	.
.	#	.	8a#/	.	.	.	.	.	.	.	8a#\	.
=121	=121	=121	=121	=121	=121	=121	=121	=121	=121	=121	=121	=121
8BB/L	.	.	8b/L	.	1ryy	8BB/	-men	1ryy	4f#\	-men	8b\	-men
8D/J	.	.	8b/J	.	.	8D\L	a-	.	.	.	8b\L	a-
!	!	!	!LO:LB:g=original	!	!	!	!	!	!	!	!	!
8F#\L	#	.	8a#X/L	.	.	8F#\J	.	.	4r	.	8a#X\J	.
8B\J	.	.	8b/J	.	.	8B\	-men	.	.	.	8b\	-men
4G#X\	6	.	8b\L	.	.	4G#X\	a-	.	2r	.	4b\	a-
.	.	.	8b\	.	.	.	.	.	.	.	.	.
4A#X\	6	.	8b\	.	.	4A#X\	.	.	.	.	4cc#\	.
.	.	.	8cc#\J	.	.	.	.	.	.	.	.	.
=122	=122	=122	=122	=122	=122	=122	=122	=122	=122	=122	=122	=122
16B\LL	.	.	16dd\LL	.	1ryy	16B\LL	.	1ryy	2r	.	16dd\LL	.
16F#\JJ	.	.	16ee\	.	.	16F#\JJ	.	.	.	.	16ee\JJ	.
4B\	x 3	.	16ff#\	.	.	4B\	.	.	.	.	8ff#\	.
.	.	.	16dd\JJ	.	.	.	.	.	.	.	.	.
.	4 2	.	4ee\	.	.	.	.	.	.	.	4ee\	.
8A#X\	.	.	.	.	.	8A#X\	.	.	.	.	.	.
!LO:TX:t=P:problem=mixed beam	!	!	!	!	!	!	!	!	!LO:SIC:v:l:s=et	!	!	!
8B\L	.	.	8dd\L	.	.	4B\	-men	.	4.b\	&	8dd\	-men
!	!	!	!	!	!	!	!	!	!	!	!LO:LB:g=original	!
8BB/	.	.	8ff#\	.	.	.	.	.	.	.	8dd\L	a-
8D/	.	.	8dd\	.	.	8r	.	.	.	.	8b\J	.
8BB/J	.	.	8ff#\J	.	.	8BB/	a-	.	8b\	in	8dd\	-men
=123	=123	=123	=123	=123	=123	=123	=123	=123	=123	=123	=123	=123
*	*	*	*	*	*	*	*	*	*	*	*	*ij
8F#\L	.	.	8ff#\L	.	1ryy	8F#\L	.	1ryy	8a#X\	sae-	8ff#\	a-
16G#X\L	.	.	8cc#\	.	.	16G#X\L	.	.	16g#X\	-cu-	8cc#\	-men
*	*	*	*	*	*	*	*	*	*	*	*	*Xij
16A\JJ	.	.	.	.	.	16A\JJ	.	.	16f#\	-la	.	.
8G#\L	6\	.	8ee#X\	.	.	4F#\	.	.	8g#\	sae-	8ee#X\L	a-
8F#\J	.	.	8ff#\J	.	.	.	.	.	8a#\	-cu-	8ff#\J	.
4E#X\	6	.	4gg#X\	.	.	4E#X\	.	.	8b\L	-lo-	4gg#X\	.
.	.	.	.	.	.	.	.	.	8dd\	.	.	.
4C#/	#	.	4cc#\	.	.	4C#/	.	.	8cc#\	.	4cc#\	-men
.	.	.	.	.	.	.	.	.	8b\J	.	.	.
!	!	!	!	!	!	!	!	!	!LO:LB:g=original	!	!	!
=124	=124	=124	=124	=124	=124	=124	=124	=124	=124	=124	=124	=124
*	*	*	*	*	*	*	*	*	*	*	*	*ij
8F#\L	.	.	8cc#\L	.	1ryy	8F#\L	.	1ryy	8a\L	.	8cc#\	a-
8D\	.	.	8cc#\J	.	.	8D\	.	.	16g#X\L	.	8cc#\	-men
*	*	*	*	*	*	*	*	*	*	*	*	*Xij
.	.	.	.	.	.	.	.	.	16f#\JJ	.	.	.
8E\	#	.	4r	.	.	8E\	.	.	8g#\L	.	4r	.
8C#\J	6	.	.	.	.	8C#\J	.	.	16f#\L	.	.	.
.	.	.	.	.	.	.	.	.	16e\JJ	.	.	.
8D/L	.	.	2r	.	.	8D/L	.	.	16f#\LL	-rum	2r	.
.	.	.	.	.	.	.	.	.	16g#X\JJ	.	.	.
8C#/J	6	.	.	.	.	8C#/J	.	.	4a\	a-	.	.
!	!	!	!	!	!	!LO:LB:g=original	!	!	!	!	!	!
4BB/	7	.	.	.	.	4BB/	.	.	.	.	.	.
.	6\	.	.	.	.	.	.	.	8g#\	.	.	.
!LO:LB:g=original	!	!	!	!	!	!	!	!	!	!	!	!
=125	=125	=125	=125	=125	=125	=125	=125	=125	=125	=125	=125	=125
!LO:TX:t=P:problem=mixed beam	!	!	!	!	!	!	!	!	!	!	!LO:SIC:v:l:s=et	!
8AA/L	.	.	4.ee\	.	1ryy	8AA/	-men	1ryy	4a\	-men	4.ee\	&
8A\	.	.	.	.	.	8A\L	a-	.	.	.	.	.
8G#X\	6	.	.	.	.	8G#X\J	.	.	8r	.	.	.
8E\J	.	.	8ee\	.	.	8E\	-men	.	8e\	a-	8ee\	in
!LO:TX:t=P:problem=mixed beam	!	!	!	!	!	!	!	!	!	!	!	!
8A\L	.	.	8cc#\L	.	.	8A\	a-	.	8a\L	.	8cc#\	sae-
8AA/J	.	.	16b\L	.	.	8AA/	-men	.	16b\L	.	16b\	-cu-
.	.	.	16a\JJ	.	.	.	.	.	16cc#\JJ	.	16a\	-la
*clefC4	*	*	*	*	*	*	*	*	*	*	*	*
*k[f#c#]	*	*	*	*	*	*	*	*	*	*	*	*
8e\L	n	.	8b\L	.	.	4r	.	.	8b\	.	8b\	sae-
8A\J	.	.	8cc#\J	.	.	.	.	.	16a\LL	-men	8cc#\	-cu-
.	.	.	.	.	.	.	.	.	16gn\JJ	.	.	.
=126	=126	=126	=126	=126	=126	=126	=126	=126	=126	=126	=126	=126
4d\	.	.	8dd\L	.	1ryy	2r	.	1ryy	4f#\	a-	8dd\L	-lo-
.	.	.	8ff#\	.	.	.	.	.	.	.	8ff#\J	.
4G/	.	.	8ee\	.	.	.	.	.	[4g\	.	8ee\L	.
.	.	.	8dd\J	.	.	.	.	.	.	.	8dd\J	.
*clefF4	*	*	*	*	*	*	*	*	*	*	*	*
*k[f#c#]	*	*	*	*	*	*	*	*	*	*	*	*
!	!	!	!	!	!	!LO:SIC:v:l:s=et	!	!	!	!	!	!
4.A\	7 3	.	16cc#\LL	.	.	4.A\	&	.	8g\L]	.	16cc#\LL	.
.	.	.	16a\JJ	.	.	.	.	.	.	.	16a\JJ	.
.	6 4	.	4dd\	.	.	.	.	.	8f#\J	-men	4dd\	.
*	*	*	*	*	*	*	*	*	*	*ij	*	*
.	.	.	.	.	.	.	.	.	4e\	a-	.	.
8A\	5 4	.	8cc#\	.	.	8A\	in	.	.	.	8cc#\	.
.	x 3	.	.	.	.	.	.	.	.	.	.	.
!	!	!	!LO:LB:g=original	!	!	!	!	!	!	!	!	!
=127	=127	=127	=127	=127	=127	=127	=127	=127	=127	=127	=127	=127
8F#\L	6	.	4dd\	.	1ryy	8F#\	sae-	1ryy	8f#\	-men	4dd\	-rum
*	*	*	*	*	*	*	*	*	*	*Xij	*	*
16E\L	.	.	.	.	.	16E\	-cu-	.	16g\LL	a-	.	.
16D\JJ	.	.	.	.	.	16D\	-la	.	16a\JJ	.	.	.
8E\L	6	.	8r	.	.	8E\	sae-	.	8g\L	.	8r	.
8F#\J	6	.	8dd\	.	.	8F#\	-cu-	.	8d\J	.	8dd\	a-
!	!	!	!	!	!	!	!	!	!	!	!LO:LB:g=original	!
8G\L	.	.	4b\	.	.	8G\L	-lo-	.	4g\	.	4b\	.
8B\	.	.	.	.	.	8B\J	.	.	.	.	.	.
8A\	.	.	4cc#\	.	.	8A\L	-rum	.	4a\	.	4cc#\	.
8G\J	.	.	.	.	.	8G\J	.	.	.	.	.	.
=128	=128	=128	=128	=128	=128	=128	=128	=128	=128	=128	=128	=128
!	!	!	!	!	!	!LO:TX:a:t=P:problem=nuty niewidoczne, zapisane na podstawie b.c.	!	!	!	!	!	!
8F#\L	6	.	16dd\LL	.	1ryy	8F#\Lyy	.	1ryy	4a\	-men	16dd\LL	.
.	.	.	16a\JJ	.	.	.	.	.	.	.	16a\JJ	.
16E\L	.	.	4dd\	.	.	16E\Lyy	.	.	.	.	4dd\	.
16D\JJ	.	.	.	.	.	16D\JJyy	.	.	.	.	.	.
8E\L	7	.	.	.	.	8E\L	.	.	4r	.	.	.
8F#\J	n5	.	8ccn\	.	.	8F#\J	.	.	.	.	8ccn\	.
16G\LL	.	.	8b/L	.	.	16G\LL	.	.	2r	.	8b\	.
16D\JJ	.	.	.	.	.	16D\JJ	.	.	.	.	.	.
4G\	x 3	.	16a/L	.	.	4G\	.	.	.	.	16a\LL	-men
.	4 2	.	16g/JJ	.	.	.	.	.	.	.	16g\JJ	.
*	*	*	*	*	*	*	*	*	*	*	*	*ij
.	.	.	4a/	.	.	.	.	.	.	.	4a\	a-
!LO:LB:g=original	!	!	!	!	!	!	!	!	!	!	!	!
8F#\	5	.	.	.	.	8F#\	.	.	.	.	.	.
!	!	!	!	!	!	!	!	!	!LO:LB:g=original	!	!	!
=129	=129	=129	=129	=129	=129	=129	=129	=129	=129	=129	=129	=129
!LO:TX:t=P:problem=mixed beam	!	!	!	!	!	!	!	!	!LO:SIC:v:l:s=et	!	!	!
8G\L	.	.	8b/L	.	1ryy	4G\	.	1ryy	4.g\	&	8b\	-men
*	*	*	*	*	*	*	*	*	*	*	*	*Xij
8GG/	.	.	16g/L	.	.	.	.	.	.	.	16g\LL	a-
.	.	.	16a/JJ	.	.	.	.	.	.	.	16a\JJ	.
!	!	!	!	!	!	!LO:PB:g=original	!	!	!	!	!	!
8G\	.	.	8b/L	.	.	4r	.	.	.	.	8b\L	.
8B\J	.	.	16a/L	.	.	.	.	.	8g\	in	16a\L	.
.	.	.	16g/JJ	.	.	.	.	.	.	.	16g\JJ	.
8A\L	6	.	8a\L	.	.	2r	.	.	8f#\	sae-	8a\	.
!	!	!	!	!	!	!	!	!	!	!	!LO:TX:a:t=P:problem=ósemka poprawiona na ćwierćnutę	!
16B\L	.	.	8dd\J	.	.	.	.	.	16e\	-cu-	4dd\	.
16cn\JJ	.	.	.	.	.	.	.	.	16d\	-la	.	.
8B\L	6	.	4ccn\	.	.	.	.	.	8e\	sae-	.	.
16A\L	.	.	.	.	.	.	.	.	8f#\	-cu-	8ccn\	.
16G\JJ	.	.	.	.	.	.	.	.	.	.	.	.
=130	=130	=130	=130	=130	=130	=130	=130	=130	=130	=130	=130	=130
4BB/	6	.	4dd\	.	1ryy	0r	.	1ryy	8g\L	-lo-	8b\	.
.	.	.	.	.	.	.	.	.	8b\	.	8dd\	-men
*	*	*	*	*	*	*	*	*	*	*	*	*ij
4C#X/	6	.	4ee\	.	.	.	.	.	8a\	.	4ee\	a-
.	5	.	.	.	.	.	.	.	8g\J	.	.	.
8D\L	.	.	8dd\	.	.	.	.	.	8f#\	.	8dd\	-men
*	*	*	*	*	*	*	*	*	*	*	*	*Xij
8F#\	6	.	4dd\	.	.	.	.	.	16e\LL	-rum	4dd\	a-
.	.	.	.	.	.	.	.	.	16d\JJ	.	.	.
8G\	6 5	.	.	.	.	.	.	.	4e\	a-	.	.
8A\J	#	.	8cc#X\	.	.	.	.	.	.	.	8cc#\	.
=131	=131	=131	=131	=131	=131	=131	=131	=131	=131	=131	=131	=131
!	!	!	!LO:TX:t=P:problem=mixed beam	!	!	!	!	!	!	!	!	!
4D\	.	.	8dd\L	.	1ryy	.	.	1ryy	4d\	-men	8dd\	-men
*	*	*	*	*	*	*	*	*	*	*	*	*ij
.	.	.	8a/	.	.	.	.	.	.	.	8a\L	a-
*clefC4	*	*	*	*	*	*	*	*	*	*	*	*
*kf#c#]	*	*	*	*	*	*	*	*	*	*	*	*
4d\	.	.	8f#/	.	.	.	.	.	8r	.	8f#\J	.
.	.	.	8a/J	.	.	.	.	.	8f#\	a-	8a\	-men
*	*	*	*	*	*	*	*	*	*	*	*	*Xij
8B\L	6	.	8dd\L	.	.	.	.	.	8g\L	.	8dd\L	a-
16A\L	.	.	16ccn\L	.	.	.	.	.	16a\L	.	16ccn\L	.
16G\JJ	.	.	16b\JJ	.	.	.	.	.	16b\JJ	.	16b\JJ	.
!	!	!	!	!	!	!	!	!	!	!	!LO:PB:g=original	!
8A\L	6	.	8cc\L	.	.	.	.	.	8a\L	.	8ccn\L	.
8B\J	6	.	8dd\J	.	.	.	.	.	16g\L	.	8dd\J	.
.	.	.	.	.	.	.	.	.	16f#\JJ	.	.	.
!	!	!	!LO:LB:g=original	!	!	!	!	!	!	!	!	!
=132	=132	=132	=132	=132	=132	=132-	=132	=132	=132	=132	=132	=132
8cn\L	.	.	4g/	.	1ryy	2r	.	1ryy	4e\	.	4g\	.
8e\	.	.	.	.	.	.	.	.	.	.	.	.
8d\	.	.	4a/	.	.	.	.	.	4f#\	.	4a\	.
8c\J	.	.	.	.	.	.	.	.	.	.	.	.
8B\L	6	.	8b/L	.	.	4r	.	.	8g\	.	8b\	.
8d\J	.	.	8a/J	.	.	.	.	.	8f#\	-men	8a\	-men
!LO:LB:g=original	!	!	!	!	!	!	!	!	!	!	!	!
*clefF4	*	*	*	*	*	*	*	*	*	*ij	*	*
*kf#c#]	*	*	*	*	*	*	*	*	*	*	*	*
!	!	!	!	!	!	!LO:SIC:v:l:s=et	!	!	!	!	!	!
8A\L	4	.	4a/	.	.	8A\	&	.	4e\	a-	4a\	a-
8A\J	#	.	.	.	.	8A\	in	.	.	.	.	.
=133	=133	=133	=133	=133	=133	=133	=133	=133	=133	=133	=133	=133
!	!	!	!LO:TX:t=P:problem=mixed beam	!	!	!	!	!	!	!	!	!
8F#\L	6	.	8a/L	.	1ryy	8F#\	sae-	1ryy	4f#\	-men	8a\	-men
*	*	*	*	*	*	*	*	*	*	*Xij	*	*
16E\L	.	.	8dd\J	.	.	16E\	-cu-	.	.	.	8dd\L	a-
16D\JJ	.	.	.	.	.	16D\	-la	.	.	.	.	.
8E\L	6	.	8cc#\L	.	.	8E\	sae-	.	8g\	a-	8cc#\	.
8F#\J	6	.	8dd\J	.	.	8F#\	-cu	.	8a\	-men	8dd\J	.
!	!	!	!	!	!	!LO:TX:a:t=P:problem=ucięta kartka	!	!	!LO:LB:g=original	!	!	!
8G\L	.	.	8b\L	.	.	2ryy	.	.	4g\	a-	8b\L	.
8B\	.	.	16cc#\L	.	.	.	.	.	.	.	16cc#\L	.
.	.	.	16dd\JJ	.	.	.	.	.	.	.	16dd\JJ	.
8A\	.	.	8cc#\L	.	.	.	.	.	[<4a\	.	8cc#\L	.
8G\J	.	.	16dd\L	.	.	.	.	.	.	.	16dd\L	.
.	.	.	16ee\JJ	.	.	.	.	.	.	.	16ee\JJ	.
=134	=134	=134	=134	=134	=134	=134	=134	=134	=134	=134	=134	=134
8F#\L	.	.	8dd\L	.	1ryy	1ryy	.	1ryy	8a\L]	.	8dd\L	.
8D\J	.	.	16ee\L	.	.	.	.	.	8f#\J	-men	8cc#\J	.
.	.	.	16ff#\JJ	.	.	.	.	.	.	.	.	.
2G\	x 3	.	8gg\L	.	.	.	.	.	4g\	a-	4b\	.
.	.	.	8ff#\J	.	.	.	.	.	.	.	.	.
.	4 2	.	4ee\	.	.	.	.	.	[<2a\	.	4cc#\	.
4F#\	6	.	[<4aa\	.	.	.	.	.	.	.	4dd\	-men
=135	=135	=135	=135	=135	=135	=135	=135	=135	=135	=135	=135	=135
2B\	7	.	4aa\]	.	1ryy	1ryy	.	1ryy	4a\]	.	2dd\	a-
.	6\	.	4gg#X\	.	.	.	.	.	4g#X\	-men	.	.
2A\	.	.	8aa\L	.	.	.	.	.	[<2a\	a-	8cc#\	-men
.	.	.	8ggn\J	.	.	.	.	.	.	.	8ee\	a-
.	.	.	8ff#\L	.	.	.	.	.	.	.	8dd\L	.
.	.	.	16ee\L	.	.	.	.	.	.	.	16cc#\L	.
.	.	.	16dd\JJ	.	.	.	.	.	.	.	16b\JJ	.
=136	=136	=136	=136	=136	=136	=136	=136	=136	=136	=136	=136	=136
2AA/	.	.	2ee\	.	1ryy	2ryy	.	1ryy	2a\]	.	2cc#\	.
!	!	!	!	!	!	!	!	!	!	!	!LO:LB:g=original	!
2D/	3	.	8ff#\L	.	.	8ryy	.	.	8a\	-men	8dd\	-men
.	.	.	8ff#\J	.	.	4D/	a-	.	8f#\L	a-	8a\L	a-
!	!	!	!LO:LB:g=original	!	!	!	!	!	!	!	!	!
.	4	.	8gg\L	.	.	.	.	.	8g\J	.	8b\J	.
.	3	.	8ff#\J	.	.	8D/	-men	.	8f#\	-men	8a\	-men
=137	=137	=137	=137	=137	=137	=137	=137	=137	=137	=137	=137	=137
1D	6 4	.	4gg\	.	1ryy	2D/	a-	1ryy	2g\	a-	4b\	a-
.	7 3	.	8ff#\L	.	.	.	.	.	.	.	4cc#\	.
.	.	.	8ee\J	.	.	.	.	.	.	.	.	.
.	8 3	.	2ff#\	.	.	2D/	-men.	.	2a\	-men.	2dd\	-men
==	==	==	==	==	==	==	==	==	==	==	==	==
*-	*-	*-	*-	*-	*-	*-	*-	*-	*-	*-	*-	*-
!!!system-decoration: [g1][g2]s7
!!!RDF**kern: < = below
!!!RDF**kern: | = vertical stroke
!!!ENC: Marta Lawrence
!!!END: 2021-01-01
!!!ENC: Mateusz Solarz
!!!END: 2020-07-15
